;FLAVOR:Marlin
;TIME:8427
;Filament used: 3.41954m
;Layer height: 0.1
;MINX:38.668
;MINY:38.67
;MINZ:0.3
;MAXX:181.336
;MAXY:181.333
;MAXZ:12.1
;Generated with Cura_SteamEngine 5.2.1
M140 S65
M105
M190 S65
M104 S235
M105
M109 S235
M82 ;absolute extrusion mode
G28 ;Home
G1 Z15.0 F2000 ;Move the platform
G92 E0
G92 E0
;LAYER_COUNT:121
;LAYER:0
M107
M204 S1000
G0 F7500 X51.895 Y40.595 Z0.3
;TYPE:SKIRT
G1 F1500 X52.368 Y40.136 E0.03288
G1 X52.857 Y39.717 E0.06501
G1 X53.395 Y39.361 E0.09719
G1 X53.973 Y39.075 E0.12937
G1 X54.581 Y38.862 E0.16151
G1 X55.211 Y38.726 E0.19366
G1 X55.854 Y38.67 E0.22586
G1 X56.498 Y38.693 E0.25801
G1 X57.134 Y38.796 E0.29016
G1 X57.753 Y38.976 E0.32232
G1 X58.345 Y39.232 E0.3545
G1 X58.9 Y39.559 E0.38664
G1 X59.53 Y40.06 E0.42679
G1 X59.881 Y40.391 E0.45086
G1 X179.368 Y159.914 E8.88259
G1 X179.866 Y160.426 E8.91822
G1 X180.286 Y160.915 E8.95038
G1 X180.642 Y161.453 E8.98257
G1 X180.929 Y162.03 E9.01472
G1 X181.142 Y162.638 E9.04686
G1 X181.279 Y163.268 E9.07902
G1 X181.336 Y163.911 E9.11123
G1 X181.314 Y164.555 E9.14338
G1 X181.212 Y165.191 E9.17551
G1 X181.032 Y165.81 E9.20767
G1 X180.776 Y166.402 E9.23985
G1 X180.45 Y166.958 E9.27201
G1 X179.915 Y167.626 E9.3147
G1 X179.621 Y167.934 E9.33595
G1 X168.17 Y179.385 E10.14388
G1 X167.681 Y179.861 E10.17792
G1 X167.192 Y180.281 E10.21008
G1 X166.655 Y180.638 E10.24225
G1 X166.078 Y180.925 E10.2744
G1 X165.47 Y181.139 E10.30656
G1 X164.84 Y181.275 E10.33872
G1 X164.198 Y181.333 E10.37088
G1 X163.553 Y181.311 E10.40307
G1 X162.917 Y181.209 E10.43521
G1 X162.298 Y181.029 E10.46737
G1 X161.705 Y180.774 E10.49958
G1 X161.149 Y180.448 E10.53173
G1 X160.474 Y179.907 E10.57489
G1 X160.238 Y179.683 E10.59112
G1 X40.633 Y60.126 E19.02821
G1 X40.141 Y59.621 E19.06338
G1 X39.721 Y59.132 E19.09554
G1 X39.364 Y58.595 E19.12771
G1 X39.077 Y58.018 E19.15986
G1 X38.863 Y57.41 E19.19202
G1 X38.726 Y56.78 E19.22419
G1 X38.668 Y56.138 E19.25635
G1 X38.69 Y55.493 E19.28854
G1 X38.791 Y54.857 E19.32067
G1 X38.971 Y54.238 E19.35283
G1 X39.226 Y53.645 E19.38504
G1 X39.552 Y53.089 E19.41719
G1 X40.072 Y52.436 E19.45884
G1 X40.414 Y52.075 E19.48365
G1 X51.895 Y40.595 E20.29366
G0 F7500 X52.173 Y40.882
G1 F1500 X52.646 Y40.423 E20.32654
G1 X53.118 Y40.022 E20.35744
G1 X53.637 Y39.684 E20.38834
G1 X54.195 Y39.416 E20.41922
G1 X54.783 Y39.222 E20.45012
G1 X55.392 Y39.105 E20.48105
G1 X56.01 Y39.068 E20.51194
G1 X56.628 Y39.111 E20.54285
G1 X57.235 Y39.233 E20.57374
G1 X57.822 Y39.432 E20.60466
G1 X58.378 Y39.704 E20.63554
G1 X58.894 Y40.047 E20.66645
G1 X59.258 Y40.353 E20.69018
G1 X59.598 Y40.673 E20.71347
G1 X179.081 Y160.193 E29.14495
G1 X179.579 Y160.705 E29.18058
G1 X179.981 Y161.176 E29.21147
G1 X180.319 Y161.695 E29.24237
G1 X180.588 Y162.253 E29.27328
G1 X180.783 Y162.841 E29.30419
G1 X180.9 Y163.449 E29.33508
G1 X180.938 Y164.067 E29.36597
G1 X180.896 Y164.685 E29.39687
G1 X180.775 Y165.293 E29.4278
G1 X180.577 Y165.879 E29.45866
G1 X180.304 Y166.436 E29.4896
G1 X179.963 Y166.952 E29.52046
G1 X179.624 Y167.351 E29.54658
G1 X179.338 Y167.651 E29.56726
G1 X167.891 Y179.099 E30.37494
G1 X167.402 Y179.575 E30.40899
G1 X166.931 Y179.977 E30.43988
G1 X166.413 Y180.316 E30.47077
G1 X165.855 Y180.584 E30.50165
G1 X165.267 Y180.779 E30.53256
G1 X164.659 Y180.897 E30.56346
G1 X164.041 Y180.935 E30.59435
G1 X163.423 Y180.893 E30.62525
G1 X162.815 Y180.772 E30.65618
G1 X162.228 Y180.574 E30.68709
G1 X161.672 Y180.302 E30.71797
G1 X161.155 Y179.961 E30.74886
G1 X160.75 Y179.616 E30.77541
G1 X160.425 Y179.306 E30.79781
G1 X40.92 Y59.847 E39.22792
G1 X40.428 Y59.342 E39.26309
G1 X40.025 Y58.871 E39.29402
G1 X39.687 Y58.352 E39.32492
G1 X39.417 Y57.795 E39.3558
G1 X39.222 Y57.207 E39.3867
G1 X39.105 Y56.599 E39.41759
G1 X39.066 Y55.981 E39.44849
G1 X39.107 Y55.363 E39.47939
G1 X39.228 Y54.755 E39.51032
G1 X39.426 Y54.168 E39.54122
G1 X39.698 Y53.612 E39.5721
G1 X40.039 Y53.095 E39.603
G1 X40.364 Y52.709 E39.62818
G1 X40.697 Y52.358 E39.65231
G1 X52.173 Y40.882 E40.46201
G0 F7500 X52.452 Y41.169
G1 F1500 X52.925 Y40.71 E40.49489
G1 X53.377 Y40.327 E40.52445
G1 X53.877 Y40.008 E40.55404
G1 X54.415 Y39.759 E40.58361
G1 X54.982 Y39.585 E40.6132
G1 X55.567 Y39.488 E40.64279
G1 X56.16 Y39.471 E40.67238
G1 X56.749 Y39.534 E40.70194
G1 X57.325 Y39.676 E40.73153
G1 X57.877 Y39.894 E40.76114
G1 X58.394 Y40.183 E40.79069
G1 X58.985 Y40.646 E40.82815
G1 X59.315 Y40.956 E40.85074
G1 X178.794 Y160.472 E49.28193
G1 X179.292 Y160.984 E49.31757
G1 X179.676 Y161.436 E49.34716
G1 X179.996 Y161.936 E49.37677
G1 X180.245 Y162.473 E49.4063
G1 X180.42 Y163.04 E49.43591
G1 X180.517 Y163.625 E49.46549
G1 X180.535 Y164.218 E49.49509
G1 X180.473 Y164.807 E49.52464
G1 X180.332 Y165.383 E49.55422
G1 X180.115 Y165.935 E49.58381
G1 X179.825 Y166.453 E49.61343
G1 X179.334 Y167.076 E49.65301
G1 X179.055 Y167.368 E49.67315
G1 X167.612 Y178.812 E50.48056
G1 X167.123 Y179.288 E50.5146
G1 X166.671 Y179.672 E50.54419
G1 X166.172 Y179.992 E50.57377
G1 X165.634 Y180.241 E50.60334
G1 X165.068 Y180.417 E50.63291
G1 X164.483 Y180.514 E50.6625
G1 X163.89 Y180.532 E50.6921
G1 X163.3 Y180.47 E50.72169
G1 X162.724 Y180.329 E50.75128
G1 X162.172 Y180.112 E50.78087
G1 X161.655 Y179.823 E50.81042
G1 X161.025 Y179.326 E50.85045
G1 X160.707 Y179.023 E50.87237
G1 X41.206 Y59.567 E59.30222
G1 X40.714 Y59.062 E59.3374
G1 X40.33 Y58.611 E59.36695
G1 X40.01 Y58.112 E59.39652
G1 X39.76 Y57.574 E59.42612
G1 X39.585 Y57.008 E59.45568
G1 X39.487 Y56.423 E59.48527
G1 X39.469 Y55.83 E59.51487
G1 X39.531 Y55.24 E59.54446
G1 X39.671 Y54.664 E59.57404
G1 X39.888 Y54.112 E59.60363
G1 X40.177 Y53.594 E59.63322
G1 X40.656 Y52.983 E59.67195
G1 X40.98 Y52.641 E59.69546
G1 X52.452 Y41.169 E60.50487
G0 F7500 X52.73 Y41.456
G1 F1500 X53.203 Y40.997 E60.53775
G1 X53.636 Y40.633 E60.56597
G1 X54.115 Y40.334 E60.59414
G1 X54.632 Y40.105 E60.62236
G1 X55.176 Y39.951 E60.65056
G1 X55.737 Y39.876 E60.6788
G1 X56.302 Y39.88 E60.70699
G1 X56.861 Y39.964 E60.73519
G1 X57.403 Y40.126 E60.76341
G1 X57.916 Y40.363 E60.79161
G1 X58.391 Y40.67 E60.81982
G1 X58.713 Y40.939 E60.84075
G1 X59.032 Y41.239 E60.8626
G1 X178.507 Y160.751 E69.29351
G1 X179.005 Y161.263 E69.32915
G1 X179.37 Y161.695 E69.35736
G1 X179.67 Y162.174 E69.38556
G1 X179.899 Y162.691 E69.41377
G1 X180.054 Y163.235 E69.44199
G1 X180.13 Y163.795 E69.47019
G1 X180.126 Y164.36 E69.49837
G1 X180.043 Y164.92 E69.52662
G1 X179.881 Y165.461 E69.55479
G1 X179.645 Y165.975 E69.58301
G1 X179.339 Y166.45 E69.6112
G1 X179.043 Y166.801 E69.63411
G1 X178.773 Y167.085 E69.65366
G1 X167.333 Y178.525 E70.46081
G1 X166.844 Y179.001 E70.49486
G1 X166.412 Y179.366 E70.52307
G1 X165.933 Y179.666 E70.55127
G1 X165.416 Y179.896 E70.5795
G1 X164.873 Y180.05 E70.60766
G1 X164.313 Y180.127 E70.63586
G1 X163.747 Y180.123 E70.6641
G1 X163.188 Y180.04 E70.69229
G1 X162.646 Y179.879 E70.7205
G1 X162.132 Y179.643 E70.74872
G1 X161.657 Y179.337 E70.77691
G1 X161.3 Y179.036 E70.80021
G1 X160.99 Y178.74 E70.82159
G1 X41.493 Y59.288 E79.25116
G1 X41.001 Y58.783 E79.28634
G1 X40.636 Y58.352 E79.31451
G1 X40.336 Y57.873 E79.34271
G1 X40.106 Y57.356 E79.37094
G1 X39.951 Y56.812 E79.39916
G1 X39.874 Y56.252 E79.42736
G1 X39.878 Y55.687 E79.45555
G1 X39.96 Y55.128 E79.48374
G1 X40.121 Y54.586 E79.51195
G1 X40.357 Y54.072 E79.54016
G1 X40.663 Y53.596 E79.5684
G1 X40.948 Y53.256 E79.59053
G1 X41.173 Y53.016 E79.60694
G1 X52.73 Y41.456 E80.42246
G0 F7500 X53.009 Y41.743
G1 F1500 X53.482 Y41.284 E80.45534
G1 X53.894 Y40.941 E80.48209
G1 X54.352 Y40.662 E80.50884
G1 X54.846 Y40.454 E80.53558
G1 X55.366 Y40.322 E80.56235
G1 X55.9 Y40.269 E80.58912
G1 X56.435 Y40.296 E80.61585
G1 X56.961 Y40.402 E80.64261
G1 X57.465 Y40.585 E80.66937
G1 X57.936 Y40.84 E80.69609
G1 X58.441 Y41.232 E80.72798
G1 X58.749 Y41.522 E80.74909
G1 X178.221 Y161.03 E89.17975
G1 X178.719 Y161.542 E89.21539
G1 X179.063 Y161.953 E89.24212
G1 X179.342 Y162.411 E89.26888
G1 X179.55 Y162.905 E89.29562
G1 X179.683 Y163.425 E89.3224
G1 X179.737 Y163.958 E89.34913
G1 X179.711 Y164.494 E89.3759
G1 X179.605 Y165.02 E89.40267
G1 X179.423 Y165.524 E89.4294
G1 X179.168 Y165.996 E89.45617
G1 X178.753 Y166.526 E89.48975
G1 X178.49 Y166.802 E89.50877
G1 X167.054 Y178.239 E90.31568
G1 X166.565 Y178.715 E90.34973
G1 X166.154 Y179.059 E90.37646
G1 X165.696 Y179.339 E90.40325
G1 X165.202 Y179.547 E90.42999
G1 X164.683 Y179.68 E90.45672
G1 X164.149 Y179.734 E90.48349
G1 X163.613 Y179.708 E90.51027
G1 X163.087 Y179.603 E90.53703
G1 X162.583 Y179.421 E90.56376
G1 X162.111 Y179.166 E90.59053
G1 X161.576 Y178.746 E90.62446
G1 X161.273 Y178.457 E90.64535
G1 X41.779 Y59.009 E99.07467
G1 X41.287 Y58.504 E99.10985
G1 X40.943 Y58.093 E99.13659
G1 X40.663 Y57.636 E99.16333
G1 X40.455 Y57.142 E99.19007
G1 X40.322 Y56.622 E99.21685
G1 X40.267 Y56.089 E99.24358
G1 X40.293 Y55.553 E99.27035
G1 X40.398 Y55.027 E99.29711
G1 X40.58 Y54.522 E99.32389
G1 X40.834 Y54.051 E99.35059
G1 X41.24 Y53.53 E99.38354
G1 X41.545 Y53.206 E99.40574
G1 X53.009 Y41.743 E100.21455
G0 F7500 X53.287 Y42.031
G1 F1500 X53.76 Y41.572 E100.24744
G1 X54.15 Y41.249 E100.2727
G1 X54.585 Y40.992 E100.29791
G1 X55.056 Y40.807 E100.32315
G1 X55.55 Y40.698 E100.34839
G1 X56.054 Y40.669 E100.37358
G1 X56.557 Y40.719 E100.3988
G1 X57.046 Y40.848 E100.42403
G1 X57.509 Y41.052 E100.44927
G1 X57.933 Y41.326 E100.47446
G1 X58.168 Y41.525 E100.48982
G1 X58.466 Y41.805 E100.51022
G1 X177.934 Y161.309 E108.9406
G1 X178.432 Y161.821 E108.97624
G1 X178.755 Y162.21 E109.00146
G1 X179.012 Y162.645 E109.02667
G1 X179.198 Y163.115 E109.05189
G1 X179.307 Y163.609 E109.07712
G1 X179.337 Y164.114 E109.10236
G1 X179.288 Y164.617 E109.12758
G1 X179.16 Y165.106 E109.1528
G1 X178.956 Y165.568 E109.17799
G1 X178.682 Y165.993 E109.20322
G1 X178.462 Y166.252 E109.22017
G1 X178.207 Y166.52 E109.23863
G1 X166.775 Y177.952 E110.04522
G1 X166.286 Y178.428 E110.07927
G1 X165.897 Y178.751 E110.10449
G1 X165.462 Y179.009 E110.12972
G1 X164.992 Y179.194 E110.15492
G1 X164.498 Y179.304 E110.18017
G1 X163.994 Y179.334 E110.20536
G1 X163.491 Y179.285 E110.23057
G1 X163.001 Y179.157 E110.25584
G1 X162.539 Y178.953 E110.28104
G1 X162.114 Y178.68 E110.30624
G1 X161.851 Y178.456 E110.32347
G1 X161.615 Y178.232 E110.33971
G1 X42.066 Y58.73 E118.77288
G1 X41.574 Y58.225 E118.80805
G1 X41.251 Y57.836 E118.83328
G1 X40.993 Y57.401 E118.85851
G1 X40.807 Y56.931 E118.88373
G1 X40.697 Y56.438 E118.90893
G1 X40.667 Y55.933 E118.93417
G1 X40.716 Y55.43 E118.95938
G1 X40.844 Y54.941 E118.9846
G1 X41.047 Y54.478 E119.00982
G1 X41.321 Y54.053 E119.03505
G1 X41.531 Y53.803 E119.05134
G1 X41.756 Y53.563 E119.06775
G1 X53.287 Y42.031 E119.88136
;MESH:TETRAEDRr6.stl
G0 F7500 X55.989 Y42.93
G0 X62.527 Y49.454
G0 X61.491 Y50.491
G0 X175.058 Y164.05
G0 X164.173 Y175.036
G0 X164.053 Y175.298
;TYPE:WALL-INNER
G1 F1500 X169.677 Y169.674 E120.27816
G1 X175.301 Y164.05 E120.67497
G1 X55.988 Y44.704 E129.09431
G1 X44.702 Y55.991 E129.89063
G1 X164.053 Y175.298 E138.30994
G0 F7500 X164.053 Y175.864
;TYPE:WALL-OUTER
G1 F1500 X169.96 Y169.957 E138.72671
G1 X175.867 Y164.05 E139.14348
G1 X55.988 Y44.138 E147.60275
G1 X44.136 Y55.991 E148.43901
G1 X164.053 Y175.864 E156.89825
G0 F7500 X164.194 Y175.723
G0 X164.052 Y174.788
;TYPE:SKIN
G1 F1500 X169.421 Y169.419 E157.27706
G1 X174.791 Y164.049 E157.65595
G1 X55.987 Y45.214 E166.0393
G1 X45.212 Y55.99 E166.79957
G1 X164.052 Y174.788 E175.18289
G0 F7500 X45.65 Y55.833
G1 F1500 X164.186 Y174.368 E183.54621
G0 F7500 X164.469 Y174.086
G1 F1500 X45.933 Y55.55 E191.90957
G0 F7500 X46.216 Y55.267
G1 F1500 X164.752 Y173.803 E200.27292
G0 F7500 X165.035 Y173.52
G1 F1500 X46.499 Y54.984 E208.63628
G0 F7500 X46.782 Y54.701
G1 F1500 X165.318 Y173.237 E216.99963
G0 F7500 X165.6 Y172.954
G1 F1500 X47.065 Y54.418 E225.36295
G0 F7500 X47.347 Y54.136
G1 F1500 X165.883 Y172.671 E233.72627
G0 F7500 X166.166 Y172.389
G1 F1500 X47.63 Y53.853 E242.08963
G0 F7500 X47.913 Y53.57
G1 F1500 X166.449 Y172.106 E250.45298
G0 F7500 X166.732 Y171.823
G1 F1500 X48.196 Y53.287 E258.81634
G0 F7500 X48.479 Y53.004
G1 F1500 X167.015 Y171.54 E267.17969
G0 F7500 X167.297 Y171.257
G1 F1500 X48.762 Y52.721 E275.54301
G0 F7500 X49.044 Y52.439
G1 F1500 X167.58 Y170.974 E283.90633
G0 F7500 X167.863 Y170.692
G1 F1500 X49.327 Y52.156 E292.26969
G0 F7500 X49.61 Y51.873
G1 F1500 X168.146 Y170.409 E300.63304
G0 F7500 X168.429 Y170.126
G1 F1500 X49.893 Y51.59 E308.9964
G0 F7500 X50.176 Y51.307
G1 F1500 X168.712 Y169.843 E317.35975
G0 F7500 X168.994 Y169.56
G1 F1500 X50.459 Y51.024 E325.72307
G0 F7500 X50.741 Y50.741
G1 F1500 X169.277 Y169.277 E334.08643
G0 F7500 X169.56 Y168.994
G1 F1500 X51.024 Y50.459 E342.44975
G0 F7500 X51.307 Y50.176
G1 F1500 X169.843 Y168.712 E350.8131
G0 F7500 X170.126 Y168.429
G1 F1500 X51.59 Y49.893 E359.17646
G0 F7500 X51.873 Y49.61
G1 F1500 X170.409 Y168.146 E367.53981
G0 F7500 X170.692 Y167.863
G1 F1500 X52.156 Y49.327 E375.90317
G0 F7500 X52.439 Y49.044
G1 F1500 X170.974 Y167.58 E384.26649
G0 F7500 X171.257 Y167.297
G1 F1500 X52.721 Y48.762 E392.62981
G0 F7500 X53.004 Y48.479
G1 F1500 X171.54 Y167.015 E400.99316
G0 F7500 X171.823 Y166.732
G1 F1500 X53.287 Y48.196 E409.35652
G0 F7500 X53.57 Y47.913
G1 F1500 X172.106 Y166.449 E417.71987
G0 F7500 X172.389 Y166.166
G1 F1500 X53.853 Y47.63 E426.08323
G0 F7500 X54.136 Y47.347
G1 F1500 X172.671 Y165.883 E434.44655
G0 F7500 X172.954 Y165.6
G1 F1500 X54.418 Y47.065 E442.80987
G0 F7500 X54.701 Y46.782
G1 F1500 X173.237 Y165.318 E451.17322
G0 F7500 X173.52 Y165.035
G1 F1500 X54.984 Y46.499 E459.53658
G0 F7500 X55.267 Y46.216
G1 F1500 X173.803 Y164.752 E467.89993
G0 F7500 X174.086 Y164.469
G1 F1500 X55.55 Y45.933 E476.26329
G0 F7500 X55.833 Y45.65
G1 F1500 X174.368 Y164.186 E484.62661
;MESH:NONMESH
G0 F300 X174.368 Y164.186 Z0.4
G0 F7500 X174.695 Y164.514
G0 X164.054 Y174.916
G0 X164.253 Y175.298
;TIME_ELAPSED:397.003670
;LAYER:1
M106 S68
;TYPE:WALL-INNER
;MESH:TETRAEDRr6.stl
G1 F1500 X169.776 Y169.775 E484.7565
G1 X175.301 Y164.25 E484.88644
G1 X55.788 Y44.704 E487.69759
G1 X44.702 Y55.791 E487.95833
G1 X164.253 Y175.298 E490.76947
G0 F8250 X164.253 Y175.864
;TYPE:WALL-OUTER
G1 F1500 X170.059 Y170.058 E490.90601
G1 X175.867 Y164.25 E491.04261
G1 X55.788 Y44.138 E493.86707
G1 X44.136 Y55.791 E494.14112
G1 X164.253 Y175.864 E496.96557
G0 F8250 X164.394 Y175.723
G0 X164.252 Y174.788
;TYPE:SKIN
G1 F1140 X169.521 Y169.519 E497.08949
G1 X174.791 Y164.249 E497.21343
G1 X55.787 Y45.214 E500.01259
G1 X45.212 Y55.79 E500.26131
G1 X164.252 Y174.788 E503.06045
G0 F8250 X164.013 Y174.266
G1 F1140 X174.269 Y164.01 E503.30166
G0 F8250 X173.986 Y163.727
G1 F1140 X163.73 Y173.983 E503.54286
G0 F8250 X163.447 Y173.7
G1 F1140 X173.703 Y163.444 E503.78407
G0 F8250 X173.42 Y163.162
G1 F1140 X163.164 Y173.417 E504.02526
G0 F8250 X162.882 Y173.135
G1 F1140 X173.137 Y162.879 E504.26646
G0 F8250 X172.855 Y162.596
G1 F1140 X162.599 Y172.852 E504.50766
G0 F8250 X162.316 Y172.569
G1 F1140 X172.572 Y162.313 E504.74887
G0 F8250 X172.289 Y162.03
G1 F1140 X162.033 Y172.286 E504.99007
G0 F8250 X161.75 Y172.003
G1 F1140 X172.006 Y161.747 E505.23128
G0 F8250 X171.723 Y161.465
G1 F1140 X161.467 Y171.72 E505.47247
G0 F8250 X161.184 Y171.438
G1 F1140 X171.44 Y161.182 E505.71368
G0 F8250 X171.158 Y160.899
G1 F1140 X160.902 Y171.155 E505.95488
G0 F8250 X160.619 Y170.872
G1 F1140 X170.875 Y160.616 E506.19609
G0 F8250 X170.592 Y160.333
G1 F1140 X160.336 Y170.589 E506.43729
G0 F8250 X160.052 Y170.307
G1 F1140 X170.309 Y160.05 E506.67852
G0 F8250 X170.026 Y159.767
G1 F1140 X159.77 Y170.024 E506.91974
G0 F8250 X159.487 Y169.741
