;FLAVOR:Marlin
;TIME:10108
;Filament used: 3.86329m
;Layer height: 0.1
;MINX:34.577
;MINY:33.084
;MINZ:0.3
;MAXX:207.06
;MAXY:194.641
;MAXZ:14.2
;Generated with Cura_SteamEngine 5.2.1
M140 S65
M105
M190 S65
M104 S235
M105
M109 S235
M82 ;absolute extrusion mode
G28 ;Home
G1 Z15.0 F2000 ;Move the platform
G92 E0
G92 E0
;LAYER_COUNT:140
;LAYER:0
M107
M204 S1000
G0 F7500 X35.84 Y34.884 Z0.3
;TYPE:SKIRT
G1 F1500 X36.291 Y34.423 E0.03218
G1 X36.795 Y34.022 E0.06431
G1 X37.346 Y33.686 E0.09651
G1 X37.933 Y33.421 E0.12864
G1 X38.549 Y33.23 E0.16081
G1 X39.184 Y33.118 E0.19298
G1 X39.828 Y33.084 E0.22516
G1 X40.471 Y33.131 E0.25732
G1 X41.103 Y33.257 E0.28947
G1 X41.715 Y33.46 E0.32164
G1 X42.297 Y33.737 E0.3538
G1 X42.84 Y34.084 E0.38595
G1 X43.213 Y34.383 E0.4098
G1 X43.424 Y34.569 E0.42383
G1 X204.947 Y185.189 E11.44223
G1 X205.466 Y185.686 E11.47808
G1 X205.904 Y186.16 E11.51028
G1 X206.279 Y186.685 E11.54247
G1 X206.586 Y187.251 E11.57459
G1 X206.821 Y187.852 E11.60679
G1 X206.98 Y188.476 E11.63891
G1 X207.06 Y189.116 E11.67109
G1 X207.06 Y189.761 E11.70327
G1 X206.981 Y190.401 E11.73544
G1 X206.823 Y191.026 E11.76761
G1 X206.589 Y191.626 E11.79974
G1 X206.282 Y192.193 E11.8319
G1 X205.908 Y192.718 E11.86406
G1 X205.472 Y193.193 E11.89623
G1 X204.98 Y193.61 E11.92841
G1 X204.44 Y193.962 E11.96057
G1 X203.861 Y194.246 E11.99274
G1 X203.252 Y194.455 E12.02486
G1 X202.621 Y194.588 E12.05704
G1 X201.978 Y194.641 E12.08922
G1 X201.334 Y194.614 E12.12138
G1 X200.847 Y194.54 E12.14596
G1 X200.401 Y194.449 E12.16867
G1 X172.384 Y187.98 E13.60322
G1 X171.743 Y187.822 E13.63615
G1 X171.127 Y187.629 E13.66836
G1 X170.541 Y187.362 E13.70049
G1 X169.992 Y187.024 E13.73265
G1 X169.562 Y186.686 E13.75994
G1 X169.168 Y186.337 E13.7862
G1 X45.361 Y70.885 E22.23185
G1 X44.841 Y70.386 E22.2678
G1 X44.404 Y69.912 E22.29997
G1 X44.029 Y69.387 E22.33216
G1 X43.723 Y68.82 E22.3643
G1 X43.514 Y68.296 E22.39245
G1 X43.352 Y67.81 E22.418
G1 X34.94 Y40.29 E23.85369
G1 X34.776 Y39.719 E23.88333
G1 X34.637 Y39.09 E23.91547
G1 X34.577 Y38.448 E23.94764
G1 X34.596 Y37.804 E23.97978
G1 X34.695 Y37.167 E24.01194
G1 X34.873 Y36.547 E24.04412
G1 X35.125 Y35.954 E24.07627
G1 X35.449 Y35.397 E24.10842
G1 X35.84 Y34.884 E24.1406
G0 F7500 X36.273 Y35.001
G1 F1500 X36.725 Y34.577 E24.17152
G1 X37.227 Y34.215 E24.20239
G1 X37.772 Y33.921 E24.23329
G1 X38.351 Y33.7 E24.26421
G1 X38.953 Y33.555 E24.2951
G1 X39.569 Y33.488 E24.32601
G1 X40.188 Y33.502 E24.3569
G1 X40.8 Y33.595 E24.38779
G1 X41.395 Y33.766 E24.41867
G1 X41.964 Y34.013 E24.44962
G1 X42.495 Y34.33 E24.48047
G1 X42.948 Y34.683 E24.50913
G1 X43.259 Y34.959 E24.52987
G1 X204.671 Y185.478 E35.54079
G1 X205.19 Y185.975 E35.57664
G1 X205.609 Y186.432 E35.60757
G1 X205.965 Y186.938 E35.63844
G1 X206.253 Y187.486 E35.66932
G1 X206.469 Y188.067 E35.70025
G1 X206.608 Y188.67 E35.73112
G1 X206.667 Y189.287 E35.76204
G1 X206.648 Y189.906 E35.79294
G1 X206.548 Y190.517 E35.82383
G1 X206.371 Y191.111 E35.85475
G1 X206.118 Y191.676 E35.88563
G1 X205.795 Y192.205 E35.91656
G1 X205.407 Y192.687 E35.94743
G1 X204.96 Y193.116 E35.97834
G1 X204.461 Y193.483 E36.00924
G1 X203.919 Y193.783 E36.04015
G1 X203.343 Y194.01 E36.07103
G1 X202.742 Y194.162 E36.10196
G1 X202.127 Y194.235 E36.13286
G1 X201.508 Y194.228 E36.16374
G1 X200.926 Y194.148 E36.19305
G1 X200.491 Y194.059 E36.2152
G1 X172.479 Y187.592 E37.64949
G1 X171.838 Y187.434 E37.68243
G1 X171.248 Y187.247 E37.7133
G1 X170.686 Y186.986 E37.74422
G1 X170.163 Y186.654 E37.77512
G1 X169.825 Y186.385 E37.79668
G1 X169.44 Y186.045 E37.8223
G1 X45.638 Y70.596 E46.26767
G1 X45.118 Y70.097 E46.30362
G1 X44.699 Y69.641 E46.33452
G1 X44.343 Y69.134 E46.36543
G1 X44.056 Y68.585 E46.39633
G1 X43.893 Y68.168 E46.41867
G1 X43.735 Y67.693 E46.44364
G1 X35.325 Y40.18 E47.87897
G1 X35.161 Y39.609 E47.90861
G1 X35.028 Y39.004 E47.93951
G1 X34.975 Y38.387 E47.97041
G1 X35.002 Y37.768 E48.00132
G1 X35.108 Y37.158 E48.03221
G1 X35.292 Y36.567 E48.06309
G1 X35.55 Y36.004 E48.09399
G1 X35.879 Y35.479 E48.1249
G1 X36.273 Y35.001 E48.1558
G0 F7500 X36.706 Y35.13
G1 F1500 X37.158 Y34.746 E48.18539
G1 X37.657 Y34.426 E48.21497
G1 X38.195 Y34.177 E48.24454
G1 X38.762 Y34.002 E48.27415
G1 X39.347 Y33.905 E48.30373
G1 X39.94 Y33.887 E48.33333
G1 X40.529 Y33.949 E48.36288
G1 X41.105 Y34.09 E48.39246
G1 X41.657 Y34.307 E48.42205
G1 X42.175 Y34.597 E48.45167
G1 X42.684 Y34.983 E48.48354
G1 X42.895 Y35.169 E48.49757
G1 X204.394 Y185.767 E59.51435
G1 X204.913 Y186.264 E59.5502
G1 X205.313 Y186.702 E59.5798
G1 X205.65 Y187.19 E59.60938
G1 X205.918 Y187.719 E59.63897
G1 X206.113 Y188.279 E59.66855
G1 X206.231 Y188.86 E59.69813
G1 X206.27 Y189.451 E59.72768
G1 X206.229 Y190.043 E59.75729
G1 X206.108 Y190.624 E59.78689
G1 X205.911 Y191.183 E59.81646
G1 X205.64 Y191.71 E59.84603
G1 X205.301 Y192.197 E59.87563
G1 X204.9 Y192.633 E59.90519
G1 X204.443 Y193.011 E59.93477
G1 X203.94 Y193.325 E59.96436
G1 X203.399 Y193.568 E59.99394
G1 X202.83 Y193.736 E60.02354
G1 X202.244 Y193.826 E60.05312
G1 X201.651 Y193.837 E60.08271
G1 X201.004 Y193.756 E60.11524
G1 X200.581 Y193.669 E60.13679
G1 X172.575 Y187.203 E61.57077
G1 X171.934 Y187.045 E61.60371
G1 X171.369 Y186.865 E61.63329
G1 X170.834 Y186.61 E61.66286
G1 X170.337 Y186.286 E61.69246
G1 X170.089 Y186.084 E61.70842
G1 X169.713 Y185.752 E61.73344
G1 X45.914 Y70.308 E70.17853
G1 X45.394 Y69.809 E70.21448
G1 X44.995 Y69.37 E70.24408
G1 X44.659 Y68.882 E70.27364
G1 X44.391 Y68.353 E70.30322
G1 X44.272 Y68.04 E70.31993
G1 X44.117 Y67.576 E70.34434
G1 X35.709 Y40.07 E71.7793
G1 X35.545 Y39.499 E71.80894
G1 X35.42 Y38.919 E71.83854
G1 X35.374 Y38.328 E71.86811
G1 X35.408 Y37.736 E71.8977
G1 X35.522 Y37.154 E71.92728
G1 X35.712 Y36.592 E71.95688
G1 X35.977 Y36.062 E71.98644
G1 X36.31 Y35.571 E72.01604
G1 X36.706 Y35.13 E72.04561
G0 F7500 X37.14 Y35.274
G1 F1500 X37.591 Y34.933 E72.07382
G1 X38.085 Y34.658 E72.10203
G1 X38.613 Y34.456 E72.13023
G1 X39.164 Y34.331 E72.15842
G1 X39.728 Y34.284 E72.18666
G1 X40.292 Y34.318 E72.21484
G1 X40.846 Y34.43 E72.24304
G1 X41.378 Y34.62 E72.27123
G1 X41.879 Y34.883 E72.29946
G1 X42.419 Y35.283 E72.33298
G1 X42.63 Y35.469 E72.34702
G1 X204.118 Y186.056 E83.36302
G1 X204.637 Y186.553 E83.39887
G1 X205.016 Y186.972 E83.42706
G1 X205.333 Y187.44 E83.45526
G1 X205.581 Y187.948 E83.48346
G1 X205.754 Y188.486 E83.51165
G1 X205.85 Y189.043 E83.53985
G1 X205.867 Y189.609 E83.5681
G1 X205.803 Y190.17 E83.59627
G1 X205.661 Y190.718 E83.62452
G1 X205.443 Y191.239 E83.65269
G1 X205.154 Y191.725 E83.6809
G1 X204.8 Y192.165 E83.70908
G1 X204.387 Y192.551 E83.73728
G1 X203.923 Y192.875 E83.76551
G1 X203.419 Y193.13 E83.79369
G1 X202.883 Y193.312 E83.82193
G1 X202.328 Y193.416 E83.85011
G1 X201.763 Y193.441 E83.87832
G1 X201.083 Y193.364 E83.91246
G1 X200.784 Y193.304 E83.92768
G1 X172.671 Y186.815 E85.36712
G1 X172.03 Y186.657 E85.40006
G1 X171.492 Y186.483 E85.42827
G1 X170.984 Y186.235 E85.45647
G1 X170.352 Y185.783 E85.49523
G1 X170.079 Y185.544 E85.51334
G1 X46.191 Y70.019 E93.96443
G1 X45.671 Y69.52 E94.00038
G1 X45.292 Y69.101 E94.02857
G1 X44.976 Y68.632 E94.05678
G1 X44.651 Y67.912 E94.09619
G1 X44.5 Y67.459 E94.12002
G1 X36.093 Y39.959 E95.55468
G1 X35.929 Y39.388 E95.58432
G1 X35.812 Y38.835 E95.61252
G1 X35.774 Y38.271 E95.64072
G1 X35.816 Y37.707 E95.66893
G1 X35.937 Y37.155 E95.69713
G1 X36.134 Y36.625 E95.72534
G1 X36.404 Y36.129 E95.75351
G1 X36.742 Y35.675 E95.78175
G1 X37.14 Y35.274 E95.80994
G0 F7500 X37.574 Y35.435
G1 F1500 X38.021 Y35.14 E95.83666
G1 X38.508 Y34.914 E95.86344
G1 X39.022 Y34.763 E95.89017
G1 X39.554 Y34.691 E95.91695
G1 X40.09 Y34.698 E95.94369
G1 X40.619 Y34.785 E95.97044
G1 X41.13 Y34.949 E95.99722
G1 X41.61 Y35.187 E96.02395
G1 X42.155 Y35.583 E96.05756
G1 X42.366 Y35.769 E96.07159
G1 X203.841 Y186.345 E107.08674
G1 X204.36 Y186.842 E107.12259
G1 X204.719 Y187.241 E107.14937
G1 X205.014 Y187.688 E107.17609
G1 X205.24 Y188.175 E107.20288
G1 X205.39 Y188.689 E107.22959
G1 X205.463 Y189.221 E107.25638
G1 X205.456 Y189.757 E107.28312
G1 X205.37 Y190.286 E107.30986
G1 X205.205 Y190.797 E107.33665
G1 X204.967 Y191.277 E107.36338
G1 X204.66 Y191.717 E107.39015
G1 X204.291 Y192.106 E107.4169
G1 X203.869 Y192.436 E107.44362
G1 X203.402 Y192.7 E107.47039
G1 X202.901 Y192.891 E107.49714
G1 X202.377 Y193.006 E107.5239
G1 X201.842 Y193.042 E107.55065
G1 X201.162 Y192.972 E107.58476
G1 X200.761 Y192.89 E107.60518
G1 X172.766 Y186.426 E109.0386
G1 X172.125 Y186.268 E109.07154
G1 X171.616 Y186.102 E109.09825
G1 X171.136 Y185.861 E109.12505
G1 X170.616 Y185.482 E109.15715
G1 X170.259 Y185.167 E109.1809
G1 X46.468 Y69.73 E117.62546
G1 X45.948 Y69.231 E117.66141
G1 X45.59 Y68.832 E117.68816
G1 X45.295 Y68.384 E117.71492
G1 X45.03 Y67.784 E117.74764
G1 X44.882 Y67.342 E117.7709
G1 X36.478 Y39.849 E119.20518
G1 X36.314 Y39.278 E119.23482
G1 X36.205 Y38.753 E119.26157
G1 X36.175 Y38.217 E119.28835
G1 X36.224 Y37.683 E119.31511
G1 X36.353 Y37.163 E119.34184
G1 X36.558 Y36.667 E119.36861
G1 X36.834 Y36.207 E119.39538
G1 X37.175 Y35.793 E119.42213
G1 X37.574 Y35.435 E119.44888
G0 F7500 X38.006 Y35.617
G1 F1500 X38.448 Y35.371 E119.47412
G1 X38.924 Y35.199 E119.49937
G1 X39.42 Y35.104 E119.52456
G1 X39.926 Y35.088 E119.54982
G1 X40.427 Y35.151 E119.57501
G1 X40.912 Y35.293 E119.60022
G1 X41.369 Y35.51 E119.62546
G1 X41.89 Y35.884 E119.65746
G1 X42.167 Y36.13 E119.67594
G1 X203.564 Y186.634 E130.6858
G1 X204.083 Y187.131 E130.72165
G1 X204.42 Y187.508 E130.74688
G1 X204.692 Y187.934 E130.77209
G1 X204.895 Y188.397 E130.79732
G1 X205.021 Y188.887 E130.82256
G1 X205.07 Y189.39 E130.84777
G1 X205.038 Y189.895 E130.87302
G1 X204.927 Y190.388 E130.89823
G1 X204.74 Y190.857 E130.92342
G1 X204.481 Y191.292 E130.94868
G1 X204.157 Y191.68 E130.9739
G1 X203.776 Y192.012 E130.99911
G1 X203.348 Y192.28 E131.0243
G1 X202.882 Y192.478 E131.04956
G1 X202.391 Y192.599 E131.07479
G1 X201.888 Y192.642 E131.09998
G1 X201.24 Y192.579 E131.13246
G1 X200.851 Y192.5 E131.15226
G1 X172.862 Y186.038 E132.58537
G1 X172.221 Y185.88 E132.61831
G1 X171.741 Y185.721 E132.64354
G1 X171.293 Y185.488 E132.66873
G1 X170.879 Y185.181 E132.69444
G1 X170.606 Y184.942 E132.71254
G1 X46.745 Y69.442 E141.1618
G1 X46.225 Y68.943 E141.19776
G1 X45.889 Y68.565 E141.22299
G1 X45.617 Y68.139 E141.2482
G1 X45.409 Y67.657 E141.27439
G1 X45.265 Y67.226 E141.29706
G1 X36.862 Y39.738 E142.73109
G1 X36.698 Y39.167 E142.76073
G1 X36.598 Y38.672 E142.78593
G1 X36.576 Y38.167 E142.81115
G1 X36.635 Y37.665 E142.83636
G1 X36.771 Y37.178 E142.86159
G1 X36.983 Y36.719 E142.88681
G1 X37.264 Y36.299 E142.91202
G1 X37.608 Y35.928 E142.93727
G1 X38.006 Y35.617 E142.96247
;MESH:TETRAEDRr3.stl
G0 F7500 X39.993 Y41.307
G0 X41.394 Y40.879
G0 X49.103 Y66.221
G0 X173.282 Y182.104
G0 X173.273 Y182.233
;TYPE:WALL-INNER
G1 F1500 X199.85 Y188.367 E144.32326
G1 X40.985 Y40.224 E155.16039
G1 X48.96 Y66.309 E156.52124
G1 X173.273 Y182.233 E165.00142
G0 F7500 X173.079 Y182.599
;TYPE:WALL-OUTER
G1 F1500 X201.214 Y189.093 E166.44198
G1 X40.166 Y38.913 E177.42808
G1 X48.609 Y66.529 E178.8688
G1 X173.079 Y182.599 E187.35967
G0 F7500 X173.273 Y182.643
G0 X173.45 Y181.904
;TYPE:SKIN
G1 F1500 X198.621 Y187.713 E188.64847
G1 X41.725 Y41.409 E199.35119
G1 X49.278 Y66.112 E200.63995
G1 X173.45 Y181.904 E209.11049
G0 F7500 X173.391 Y182.157
G0 X197.307 Y187.677
G0 X197.411 Y187.229
G1 F1500 X191.946 Y181.763 E209.49611
G0 F7500 X192.26 Y181.427
G0 X197.181 Y186.146
G0 X199.136 Y187.988
G0 X196.747 Y187.451
G0 X190.688 Y186.149
G0 X190.792 Y185.701
G1 F1500 X116.526 Y111.435 E214.73598
G0 F7500 X116.841 Y111.098
G0 X108.462 Y103.285
G0 X108.147 Y103.621
G1 F1500 X190.056 Y185.531 E220.51513
G0 F7500 X189.32 Y185.36
G1 F1500 X99.767 Y95.807 E226.83358
G0 F7500 X100.082 Y95.47
G0 X91.702 Y87.656
G0 X91.387 Y87.993
G1 F1500 X188.585 Y185.191 E233.69143
G0 F7500 X187.849 Y185.021
G1 F1500 X83.007 Y80.179 E241.0886
G0 F7500 X83.322 Y79.842
G0 X74.943 Y72.028
G0 X74.628 Y72.365
G1 F1500 X187.114 Y184.851 E249.02509
G0 F7500 X186.379 Y184.682
G1 F1500 X66.248 Y64.551 E257.50098
G0 F7500 X66.563 Y64.214
G0 X58.183 Y56.399
G0 X57.868 Y56.736
G1 F1500 X185.643 Y184.512 E266.51623
G0 F7500 X184.908 Y184.342
G1 F1500 X49.488 Y48.922 E276.07084
G0 F7500 X49.803 Y48.585
G0 X43.771 Y43.091
G0 X41.413 Y40.909
G0 X42.222 Y43.607
G0 X44.215 Y50.446
G0 X44.655 Y50.312
G1 F1500 X176.817 Y182.474 E285.39559
G0 F7500 X176.082 Y182.304
G1 F1500 X44.905 Y51.128 E294.6508
G0 F7500 X45.154 Y51.942
G1 F1500 X175.346 Y182.135 E303.83658
G0 F7500 X174.611 Y181.965
G1 F1500 X45.404 Y52.757 E312.95287
G0 F7500 X45.652 Y53.572
G1 F1500 X173.876 Y181.795 E321.99973
G0 F7500 X173.772 Y182.245
G0 X177.449 Y183.093
G0 X177.553 Y182.644
G1 F1500 X44.407 Y49.498 E331.3939
G0 F7500 X44.158 Y48.683
G1 F1500 X178.289 Y182.814 E340.85757
G0 F7500 X179.024 Y182.984
G1 F1500 X43.908 Y47.868 E350.39073
G0 F7500 X43.659 Y47.053
G1 F1500 X179.759 Y183.154 E359.99335
G0 F7500 X180.495 Y183.323
G1 F1500 X43.41 Y46.239 E369.66541
G0 F7500 X43.161 Y45.423
G1 F1500 X181.23 Y183.493 E379.40696
G0 F7500 X181.966 Y183.663
G1 F1500 X42.912 Y44.609 E389.21797
G0 F7500 X42.662 Y43.793
G1 F1500 X182.701 Y183.832 E399.09847
G0 F7500 X183.437 Y184.003
G1 F1500 X42.413 Y42.979 E409.04848
G0 F7500 X42.164 Y42.164
G1 F1500 X184.173 Y184.173 E419.06798
G0 F7500 X184.069 Y184.621
G0 X191.423 Y186.319
G0 X191.527 Y185.87
G1 F1500 X124.906 Y119.25 E423.76842
G0 F7500 X125.221 Y118.913
G0 X133.601 Y126.727
G0 X133.286 Y127.064
G1 F1500 X192.263 Y186.04 E427.92953
G0 F7500 X192.998 Y186.21
G1 F1500 X141.666 Y134.878 E431.55128
G0 F7500 X141.981 Y134.541
G0 X150.36 Y142.356
G0 X150.046 Y142.692
G1 F1500 X193.733 Y186.379 E434.63363
G0 F7500 X194.469 Y186.549
G1 F1500 X158.426 Y150.506 E437.17666
G0 F7500 X158.74 Y150.17
G0 X167.121 Y157.985
G0 X166.806 Y158.321
G1 F1500 X195.204 Y186.719 E439.18029
G0 F7500 X195.94 Y186.889
G1 F1500 X175.186 Y166.135 E440.6446
G0 F7500 X175.5 Y165.799
G0 X183.88 Y173.613
G0 X183.566 Y173.949
G1 F1500 X196.676 Y187.059 E441.56958
G0 F7500 X196.572 Y187.508
G0 X195.747 Y187.219
G0 X173.387 Y182.015
G0 X169.668 Y178.605
G0 X168.6 Y177.738
G0 X168.915 Y177.401
G1 F1500 X45.901 Y54.387 E450.24888
G0 F7500 X46.151 Y55.202
G1 F1500 X160.534 Y169.585 E458.31922
G0 F7500 X160.219 Y169.922
G0 X151.837 Y162.106
G0 X152.152 Y161.769
G1 F1500 X46.4 Y56.016 E465.78063
G0 F7500 X46.649 Y56.831
G1 F1500 X143.77 Y153.952 E472.63304
G0 F7500 X143.455 Y154.289
G0 X135.073 Y146.473
G0 X135.388 Y146.136
G1 F1500 X46.898 Y57.646 E478.87649
G0 F7500 X47.147 Y58.461
G1 F1500 X127.006 Y138.319 E484.51094
G0 F7500 X126.69 Y138.656
G0 X118.309 Y130.841
G0 X118.624 Y130.504
G1 F1500 X47.397 Y59.276 E489.53642
G0 F7500 X47.646 Y60.091
G1 F1500 X110.242 Y122.687 E493.95291
G0 F7500 X109.927 Y123.024
G0 X101.545 Y115.208
G0 X101.86 Y114.871
G1 F1500 X47.895 Y60.905 E497.76047
G0 F7500 X48.144 Y61.721
G1 F1500 X93.478 Y107.055 E500.95902
G0 F7500 X93.163 Y107.392
G0 X84.782 Y99.576
G0 X85.097 Y99.239
G1 F1500 X48.393 Y62.535 E503.54869
G0 F7500 X48.642 Y63.35
G1 F1500 X76.715 Y91.423 E505.52939
G0 F7500 X76.4 Y91.76
G0 X68.018 Y83.943
G0 X68.333 Y83.606
G1 F1500 X48.892 Y64.165 E506.90106
G0 F7500 X49.141 Y64.98
G1 F1500 X59.951 Y75.79 E507.66376
G0 F7500 X59.636 Y76.127
G0 X51.255 Y68.311
G0 X51.57 Y67.974
G1 F1500 X49.39 Y65.795 E507.81754
;MESH:NONMESH
G0 F300 X49.39 Y65.795 Z0.4
G0 F7500 X48.949 Y65.929
G0 X173.617 Y182.005
G0 X173.549 Y182.297
;TIME_ELAPSED:423.874958
;LAYER:1
M106 S68
;TYPE:WALL-INNER
