;FLAVOR:Marlin
;TIME:9606
;Filament used: 3.6798m
;Layer height: 0.1
;MINX:35.086
;MINY:33.361
;MINZ:0.3
;MAXX:193.539
;MAXY:183.617
;MAXZ:14.3
;Generated with Cura_SteamEngine 5.2.1
M140 S65
M105
M190 S65
M104 S235
M105
M109 S235
M82 ;absolute extrusion mode
G28 ;Home
G1 Z15.0 F2000 ;Move the platform
G92 E0
G92 E0
;LAYER_COUNT:141
;LAYER:0
M107
M204 S1000
G0 F7500 X36.653 Y35.123 Z0.3
;TYPE:SKIRT
G1 F1500 X37.142 Y34.703 E0.03216
G1 X37.68 Y34.347 E0.06434
G1 X38.257 Y34.06 E0.0965
G1 X38.704 Y33.895 E0.12027
G1 X39.428 Y33.665 E0.15817
G1 X40.053 Y33.508 E0.19032
G1 X40.39 Y33.457 E0.20732
G1 X40.753 Y33.414 E0.22556
G1 X41.12 Y33.384 E0.24393
G1 X41.608 Y33.361 E0.2683
G1 X42.253 Y33.37 E0.30048
G1 X42.953 Y33.473 E0.33578
G1 X45.37 Y33.996 E0.45916
G1 X45.99 Y34.171 E0.4913
G1 X46.584 Y34.421 E0.52345
G1 X47.143 Y34.743 E0.55564
G1 X47.758 Y35.221 E0.5945
G1 X48.349 Y35.756 E0.63427
G1 X191.438 Y169.147 E10.39385
G1 X191.937 Y169.623 E10.42825
G1 X192.375 Y170.096 E10.46041
G1 X192.751 Y170.62 E10.49259
G1 X193.06 Y171.186 E10.52476
G1 X193.296 Y171.786 E10.55693
G1 X193.456 Y172.411 E10.58911
G1 X193.537 Y173.05 E10.62125
G1 X193.539 Y173.695 E10.65343
G1 X193.461 Y174.335 E10.68559
G1 X193.304 Y174.96 E10.71775
G1 X193.071 Y175.561 E10.7499
G1 X192.766 Y176.129 E10.78207
G1 X192.392 Y176.654 E10.81423
G1 X191.957 Y177.13 E10.8464
G1 X191.466 Y177.548 E10.87857
G1 X190.927 Y177.901 E10.91071
G1 X190.349 Y178.186 E10.94286
G1 X189.944 Y178.335 E10.96439
G1 X189.193 Y178.577 E11.00376
G1 X174.068 Y183.202 E11.79284
G1 X173.327 Y183.416 E11.83132
G1 X172.697 Y183.556 E11.86352
G1 X172.055 Y183.617 E11.89569
G1 X171.411 Y183.598 E11.92783
G1 X170.774 Y183.5 E11.95999
G1 X170.154 Y183.323 E11.99215
G1 X169.56 Y183.072 E12.02433
G1 X169.003 Y182.748 E12.05647
G1 X168.399 Y182.278 E12.09466
G1 X167.819 Y181.753 E12.13369
G1 X44.404 Y66.602 E20.55479
G1 X43.915 Y66.131 E20.58867
G1 X43.479 Y65.656 E20.62083
G1 X43.105 Y65.131 E20.65299
G1 X42.878 Y64.725 E20.6762
G1 X42.422 Y63.819 E20.7268
G1 X42.054 Y63.061 E20.76884
G1 X40.815 Y60.683 E20.90262
G1 X39.858 Y58.946 E21.00156
G1 X39.483 Y58.09 E21.04818
G1 X39.279 Y57.48 E21.08027
G1 X38.768 Y55.849 E21.16554
G1 X37.657 Y52.208 E21.35546
G1 X37.428 Y51.409 E21.39693
G1 X36.883 Y49.272 E21.50696
G1 X36.843 Y49.062 E21.51762
G1 X36.538 Y47.855 E21.57973
G1 X36.427 Y47.285 E21.6087
G1 X36.339 Y46.64 E21.64118
G1 X35.928 Y43.916 E21.77862
G1 X35.44 Y41.205 E21.91605
G1 X35.175 Y39.848 E21.98503
G1 X35.09 Y39.209 E22.01719
G1 X35.086 Y38.564 E22.04937
G1 X35.161 Y37.924 E22.08152
G1 X35.315 Y37.298 E22.11368
G1 X35.546 Y36.696 E22.14585
G1 X35.849 Y36.127 E22.17801
G1 X36.22 Y35.6 E22.21016
G1 X36.653 Y35.123 E22.2423
G0 F7500 X37.074 Y35.277
G1 F1500 X37.561 Y34.894 E22.27321
G1 X38.093 Y34.577 E22.30411
G1 X38.825 Y34.276 E22.3436
G1 X39.549 Y34.046 E22.38149
G1 X40.437 Y33.854 E22.42682
G1 X40.8 Y33.811 E22.44506
G1 X41.139 Y33.783 E22.46203
G1 X41.627 Y33.76 E22.4864
G1 X42.246 Y33.771 E22.51729
G1 X42.868 Y33.864 E22.54867
G1 X45.285 Y34.387 E22.67204
G1 X45.881 Y34.556 E22.70295
G1 X46.45 Y34.801 E22.73385
G1 X46.982 Y35.118 E22.76475
G1 X47.49 Y35.518 E22.79701
G1 X48.076 Y36.049 E22.83646
G1 X191.162 Y169.437 E32.59583
G1 X191.661 Y169.913 E32.63023
G1 X192.081 Y170.368 E32.66113
G1 X192.438 Y170.874 E32.69202
G1 X192.728 Y171.422 E32.72295
G1 X192.944 Y172.002 E32.75383
G1 X193.084 Y172.605 E32.78471
G1 X193.145 Y173.222 E32.81565
G1 X193.126 Y173.841 E32.84654
G1 X193.028 Y174.452 E32.87742
G1 X192.852 Y175.046 E32.90832
G1 X192.601 Y175.612 E32.93921
G1 X192.279 Y176.141 E32.97011
G1 X191.891 Y176.624 E33.00102
G1 X191.445 Y177.054 E33.03193
G1 X190.947 Y177.422 E33.06282
G1 X190.405 Y177.723 E33.09375
G1 X189.821 Y177.954 E33.12508
G1 X189.076 Y178.194 E33.16413
G1 X173.878 Y182.841 E33.95702
G1 X173.216 Y183.032 E33.99139
G1 X172.611 Y183.165 E34.0223
G1 X171.994 Y183.219 E34.0532
G1 X171.375 Y183.193 E34.0841
G1 X170.765 Y183.087 E34.11499
G1 X170.173 Y182.904 E34.14591
G1 X169.61 Y182.646 E34.1768
G1 X169.084 Y182.318 E34.20773
G1 X168.667 Y181.981 E34.23448
G1 X168.091 Y181.461 E34.27319
G1 X44.681 Y66.314 E42.69398
G1 X44.192 Y65.843 E42.72786
G1 X43.775 Y65.386 E42.75872
G1 X43.42 Y64.878 E42.78964
G1 X43.235 Y64.545 E42.80865
G1 X42.782 Y63.644 E42.85896
G1 X42.418 Y62.895 E42.90051
G1 X41.153 Y60.467 E43.03709
G1 X40.209 Y58.753 E43.13472
G1 X39.862 Y57.963 E43.17776
G1 X39.661 Y57.361 E43.20943
G1 X39.15 Y55.732 E43.2946
G1 X38.061 Y52.166 E43.48062
G1 X37.816 Y51.31 E43.52504
G1 X37.271 Y49.173 E43.63507
G1 X37.237 Y48.99 E43.64436
G1 X36.925 Y47.757 E43.70781
G1 X36.823 Y47.231 E43.73454
G1 X36.725 Y46.515 E43.7706
G1 X36.322 Y43.844 E43.90536
G1 X35.847 Y41.204 E44.03919
G1 X35.567 Y39.771 E44.11203
G1 X35.488 Y39.157 E44.14292
G1 X35.488 Y38.538 E44.1738
G1 X35.568 Y37.924 E44.20469
G1 X35.727 Y37.325 E44.23561
G1 X35.961 Y36.752 E44.26649
G1 X36.268 Y36.213 E44.29744
G1 X36.641 Y35.719 E44.32832
G1 X37.074 Y35.277 E44.35919
G0 F7500 X37.495 Y35.443
G1 F1500 X37.978 Y35.1 E44.38874
G1 X38.504 Y34.825 E44.41835
G1 X38.946 Y34.658 E44.44193
G1 X39.67 Y34.428 E44.47983
G1 X40.484 Y34.252 E44.52138
G1 X40.847 Y34.209 E44.53961
G1 X41.158 Y34.183 E44.55518
G1 X41.646 Y34.16 E44.57956
G1 X42.239 Y34.172 E44.60915
G1 X42.784 Y34.255 E44.63665
G1 X45.201 Y34.778 E44.76003
G1 X45.77 Y34.942 E44.78957
G1 X46.313 Y35.181 E44.81917
G1 X46.818 Y35.491 E44.84873
G1 X47.221 Y35.815 E44.87453
G1 X47.803 Y36.342 E44.9137
G1 X190.886 Y169.726 E54.67282
G1 X191.385 Y170.202 E54.70722
G1 X191.786 Y170.639 E54.73681
G1 X192.124 Y171.127 E54.76643
G1 X192.393 Y171.655 E54.79599
G1 X192.589 Y172.214 E54.82555
G1 X192.708 Y172.795 E54.85514
G1 X192.748 Y173.387 E54.88474
G1 X192.708 Y173.979 E54.91434
G1 X192.589 Y174.559 E54.94388
G1 X192.392 Y175.119 E54.9735
G1 X192.123 Y175.647 E55.00306
G1 X191.784 Y176.134 E55.03266
G1 X191.384 Y176.571 E55.06222
G1 X190.928 Y176.95 E55.0918
G1 X190.425 Y177.265 E55.12141
G1 X189.698 Y177.574 E55.16082
G1 X188.959 Y177.812 E55.19956
G1 X173.767 Y182.457 E55.99212
G1 X173.105 Y182.648 E56.0265
G1 X172.525 Y182.773 E56.0561
G1 X171.934 Y182.82 E56.08568
G1 X171.342 Y182.786 E56.11526
G1 X170.76 Y182.674 E56.14483
G1 X170.198 Y182.484 E56.17443
G1 X169.667 Y182.22 E56.20401
G1 X169.176 Y181.887 E56.23361
G1 X168.935 Y181.685 E56.2493
G1 X168.364 Y181.168 E56.28773
G1 X44.959 Y66.026 E64.70816
G1 X44.47 Y65.555 E64.74204
G1 X44.071 Y65.116 E64.77163
G1 X43.736 Y64.627 E64.80121
G1 X43.592 Y64.365 E64.81612
G1 X43.169 Y63.525 E64.86304
G1 X42.775 Y62.714 E64.90803
G1 X41.518 Y60.302 E65.04372
G1 X40.559 Y58.56 E65.14293
G1 X40.241 Y57.836 E65.18238
G1 X40.069 Y57.323 E65.20937
G1 X39.533 Y55.615 E65.29868
G1 X38.425 Y51.986 E65.48799
G1 X38.203 Y51.211 E65.52821
G1 X37.658 Y49.074 E65.63823
G1 X37.624 Y48.89 E65.64757
G1 X37.313 Y47.659 E65.71091
G1 X37.22 Y47.177 E65.7354
G1 X37.13 Y46.521 E65.76844
G1 X36.713 Y43.758 E65.90785
G1 X36.24 Y41.128 E66.04116
G1 X35.96 Y39.695 E66.11401
G1 X35.885 Y39.106 E66.14363
G1 X35.891 Y38.514 E66.17317
G1 X35.976 Y37.927 E66.20276
G1 X36.14 Y37.357 E66.23235
G1 X36.378 Y36.814 E66.26193
G1 X36.687 Y36.308 E66.29151
G1 X37.062 Y35.848 E66.32112
G1 X37.495 Y35.443 E66.3507
G0 F7500 X37.914 Y35.624
G1 F1500 X38.393 Y35.323 E66.37892
G1 X39.067 Y35.039 E66.41541
G1 X39.791 Y34.809 E66.45331
G1 X40.531 Y34.649 E66.49108
G1 X40.894 Y34.606 E66.50932
G1 X41.177 Y34.582 E66.52349
G1 X41.665 Y34.559 E66.54786
G1 X42.23 Y34.573 E66.57606
G1 X42.699 Y34.645 E66.59973
G1 X45.116 Y35.168 E66.7231
G1 X45.659 Y35.327 E66.75133
G1 X46.174 Y35.56 E66.77953
G1 X46.651 Y35.864 E66.80775
G1 X46.953 Y36.111 E66.82722
G1 X47.531 Y36.634 E66.86611
G1 X190.61 Y170.016 E76.62501
G1 X191.109 Y170.492 E76.65942
G1 X191.489 Y170.91 E76.6876
G1 X191.807 Y171.377 E76.71579
G1 X192.056 Y171.885 E76.74401
G1 X192.23 Y172.423 E76.77222
G1 X192.327 Y172.98 E76.80043
G1 X192.345 Y173.545 E76.82863
G1 X192.283 Y174.107 E76.85684
G1 X192.142 Y174.654 E76.88502
G1 X191.925 Y175.176 E76.91323
G1 X191.637 Y175.663 E76.94145
G1 X191.283 Y176.104 E76.96967
G1 X190.871 Y176.49 E76.99783
G1 X190.408 Y176.815 E77.02606
G1 X189.904 Y177.071 E77.05426
G1 X189.576 Y177.193 E77.07172
G1 X188.842 Y177.429 E77.11018
G1 X173.656 Y182.072 E77.90244
G1 X172.994 Y182.263 E77.93681
G1 X172.441 Y182.381 E77.96502
G1 X171.877 Y182.42 E77.99323
G1 X171.313 Y182.379 E78.02144
G1 X170.761 Y182.259 E78.04962
G1 X170.231 Y182.062 E78.07783
G1 X169.734 Y181.792 E78.10605
G1 X169.203 Y181.388 E78.13934
G1 X168.637 Y180.876 E78.17741
G1 X45.236 Y65.738 E86.59757
G1 X44.747 Y65.267 E86.63144
G1 X44.369 Y64.847 E86.65963
G1 X43.949 Y64.185 E86.69874
G1 X43.501 Y63.294 E86.7485
G1 X43.131 Y62.533 E86.79071
G1 X41.865 Y60.103 E86.92741
G1 X40.909 Y58.367 E87.02629
G1 X40.62 Y57.709 E87.06214
G1 X40.424 Y57.121 E87.09306
G1 X39.915 Y55.498 E87.17793
G1 X38.809 Y51.875 E87.36691
G1 X38.624 Y51.235 E87.40015
G1 X38.046 Y48.975 E87.51653
G1 X38.014 Y48.799 E87.52545
G1 X37.701 Y47.561 E87.58916
G1 X37.616 Y47.122 E87.61147
G1 X37.518 Y46.406 E87.64753
G1 X37.114 Y43.733 E87.7824
G1 X36.632 Y41.051 E87.91835
G1 X36.352 Y39.618 E87.99119
G1 X36.283 Y39.057 E88.01939
G1 X36.294 Y38.492 E88.04758
G1 X36.385 Y37.934 E88.07579
G1 X36.553 Y37.394 E88.104
G1 X36.795 Y36.883 E88.13221
G1 X37.108 Y36.412 E88.16043
G1 X37.483 Y35.989 E88.18863
G1 X37.914 Y35.624 E88.21681
G0 F7500 X38.333 Y35.822
G1 F1500 X38.804 Y35.567 E88.24353
G1 X39.188 Y35.42 E88.26404
G1 X39.912 Y35.19 E88.30194
G1 X40.579 Y35.046 E88.33598
G1 X40.942 Y35.003 E88.35422
G1 X41.196 Y34.982 E88.36694
G1 X41.684 Y34.959 E88.39131
G1 X42.22 Y34.974 E88.41806
G1 X42.614 Y35.036 E88.43796
G1 X45.031 Y35.559 E88.56133
G1 X45.546 Y35.712 E88.58814
G1 X46.032 Y35.938 E88.61488
G1 X46.478 Y36.235 E88.64161
G1 X46.685 Y36.408 E88.65507
G1 X47.258 Y36.927 E88.69364
G1 X190.334 Y170.305 E98.4523
G1 X190.833 Y170.781 E98.48671
G1 X191.192 Y171.179 E98.51345
G1 X191.489 Y171.626 E98.54022
G1 X191.715 Y172.112 E98.56696
G1 X191.867 Y172.627 E98.59375
G1 X191.941 Y173.158 E98.6205
G1 X191.935 Y173.694 E98.64724
G1 X191.849 Y174.223 E98.67398
G1 X191.686 Y174.734 E98.70074
G1 X191.449 Y175.215 E98.72749
G1 X191.143 Y175.655 E98.75423
G1 X190.774 Y176.045 E98.78102
G1 X190.352 Y176.376 E98.80777
G1 X189.886 Y176.641 E98.83452
G1 X189.453 Y176.812 E98.85774
G1 X188.725 Y177.047 E98.89591
G1 X173.545 Y181.688 E99.68785
G1 X172.883 Y181.879 E99.72222
G1 X172.358 Y181.989 E99.74898
G1 X171.823 Y182.019 E99.77572
G1 X171.289 Y181.97 E99.80247
G1 X170.768 Y181.842 E99.82923
G1 X170.272 Y181.638 E99.85599
G1 X169.812 Y181.363 E99.88273
G1 X169.471 Y181.091 E99.90449
G1 X168.91 Y180.583 E99.94225
G1 X45.514 Y65.45 E108.36205
G1 X45.025 Y64.979 E108.39592
G1 X44.667 Y64.579 E108.42271
G1 X44.307 Y64.005 E108.45651
G1 X43.861 Y63.12 E108.50595
G1 X43.481 Y62.338 E108.54933
G1 X42.213 Y59.905 E108.68621
G1 X41.26 Y58.174 E108.78479
G1 X41 Y57.581 E108.81709
G1 X40.806 Y57.001 E108.8476
G1 X40.298 Y55.381 E108.93231
G1 X39.194 Y51.764 E109.12098
G1 X38.979 Y51.014 E109.1599
G1 X38.434 Y48.877 E109.26993
G1 X38.404 Y48.706 E109.27859
G1 X38.089 Y47.462 E109.34262
G1 X38.012 Y47.068 E109.36264
G1 X37.914 Y46.352 E109.3987
G1 X37.505 Y43.646 E109.53523
G1 X37.015 Y40.922 E109.67332
G1 X36.745 Y39.541 E109.74352
G1 X36.681 Y39.009 E109.77025
G1 X36.698 Y38.473 E109.79701
G1 X36.794 Y37.945 E109.82378
G1 X36.967 Y37.438 E109.85051
G1 X37.214 Y36.961 E109.87731
G1 X37.528 Y36.527 E109.90403
G1 X37.904 Y36.145 E109.93077
G1 X38.333 Y35.822 E109.95756
G0 F7500 X38.748 Y36.04
G1 F1500 X39.309 Y35.801 E109.98799
G1 X40.033 Y35.571 E110.02589
G1 X40.626 Y35.443 E110.05615
G1 X41.093 Y35.388 E110.07961
G1 X41.702 Y35.359 E110.11003
G1 X42.208 Y35.375 E110.13529
G1 X42.53 Y35.427 E110.15156
G1 X44.947 Y35.95 E110.27493
G1 X45.431 Y36.096 E110.30016
G1 X45.886 Y36.316 E110.32537
G1 X46.416 Y36.705 E110.35817
G1 X46.985 Y37.219 E110.39642
G1 X190.058 Y170.595 E120.15491
G1 X190.557 Y171.071 E120.18931
G1 X190.894 Y171.447 E120.2145
G1 X191.167 Y171.872 E120.2397
G1 X191.371 Y172.335 E120.26495
G1 X191.498 Y172.825 E120.2902
G1 X191.547 Y173.328 E120.31541
G1 X191.517 Y173.832 E120.3406
G1 X191.407 Y174.326 E120.36585
G1 X191.221 Y174.796 E120.39107
G1 X190.963 Y175.231 E120.4163
G1 X190.64 Y175.62 E120.44153
G1 X190.259 Y175.953 E120.46677
G1 X189.831 Y176.222 E120.49199
G1 X189.33 Y176.432 E120.5191
G1 X188.608 Y176.664 E120.55693
G1 X173.434 Y181.304 E121.34857
G1 X172.772 Y181.495 E121.38294
G1 X172.277 Y181.596 E121.40815
G1 X171.772 Y181.618 E121.43336
G1 X171.269 Y181.56 E121.45862
G1 X170.783 Y181.424 E121.4838
G1 X170.323 Y181.213 E121.50905
G1 X169.74 Y180.794 E121.54487
G1 X169.183 Y180.291 E121.58231
G1 X45.791 Y65.162 E130.00183
G1 X45.302 Y64.691 E130.03571
G1 X44.967 Y64.312 E130.06094
G1 X44.664 Y63.825 E130.08956
G1 X44.221 Y62.945 E130.13871
G1 X43.838 Y62.157 E130.18242
G1 X42.579 Y59.739 E130.31843
G1 X41.61 Y57.981 E130.41858
G1 X41.379 Y57.454 E130.44728
G1 X41.188 Y56.882 E130.47737
G1 X40.681 Y55.265 E130.56191
G1 X39.578 Y51.653 E130.75033
G1 X39.366 Y50.915 E130.78864
G1 X38.821 Y48.778 E130.89867
G1 X38.792 Y48.609 E130.90722
G1 X38.477 Y47.364 E130.97129
G1 X38.409 Y47.014 E130.98908
G1 X38.317 Y46.342 E131.02292
G1 X37.9 Y43.581 E131.16223
G1 X37.417 Y40.898 E131.29824
G1 X37.137 Y39.465 E131.37108
G1 X37.08 Y38.962 E131.39634
G1 X37.102 Y38.457 E131.42156
G1 X37.204 Y37.962 E131.44677
G1 X37.382 Y37.489 E131.47198
G1 X37.633 Y37.05 E131.49721
G1 X37.95 Y36.656 E131.52244
G1 X38.324 Y36.317 E131.54762
G1 X38.748 Y36.04 E131.57289
G0 F7500 X39.879 Y38.265
G0 X40.005 Y38.669
;TYPE:SUPPORT
G1 F1500 X40.005 Y38.809 E131.57988
G0 F7500 X39.711 Y39.303
G0 X40.772 Y46.137
G0 X41.269 Y48.029
G0 X41.703 Y48.006
G1 F1500 X42.636 Y48.006 E131.62642
G1 X42.672 Y48.125
G1 X42.672 Y51.647 E131.80214
G0 F7500 X42.374 Y50.673
G1 F1500 X43.451 Y50.673 E131.85587
G0 F7500 X43.189 Y53.34
G1 F1500 X44.265 Y53.34 E131.90955
G0 F7500 X44.016 Y56.007
G1 F1500 X45.08 Y56.007 E131.96263
;MESH:TETRAEDRr4.stl
G0 F7500 X45.15 Y56.892
G0 X46.932 Y62.757
G0 X48.515 Y64.236
G0 X49.514 Y63.164
G0 X171.986 Y177.569
G0 X172.038 Y177.755
;TYPE:WALL-INNER
G1 F1500 X175.825 Y176.598 E132.16019
G1 X187.194 Y173.122 E132.75331
G1 X44.119 Y39.745 E142.5119
G1 X41.467 Y40.556 E142.65026
G1 X48.042 Y62.063 E143.77227
G1 X172.038 Y177.755 E152.23298
G0 F7500 X171.934 Y178.205
;TYPE:WALL-OUTER
G1 F1500 X175.942 Y176.98 E152.44207
G1 X187.974 Y173.302 E153.06977
G1 X44.223 Y39.295 E162.87446
G1 X41.157 Y40.232 E163.03441
G1 X40.983 Y40.342 E163.04468
G1 X47.691 Y62.283 E164.18934
G1 X171.934 Y178.205 E172.66689
G0 F7500 X172.125 Y178.147
G0 X172.132 Y177.348
;TYPE:SKIN
G1 F1500 X186.491 Y172.958 E173.416
G1 X44.027 Y40.152 E183.13286
G1 X41.917 Y40.796 E183.24293
G1 X48.36 Y61.866 E184.34216
G1 X172.132 Y177.348 E192.78756
G0 F7500 X172.208 Y177.598
G0 X186.065 Y173.362
G0 X185.93 Y172.919
G1 F1500 X182.825 Y169.815 E193.0066
G0 F7500 X183.139 Y169.479
G0 X184.723 Y171.081
G0 X186.769 Y173.024
G0 X185.137 Y173.556
G0 X183.899 Y174.024
G0 X183.764 Y173.581
G1 F1500 X141.103 Y130.921 E196.01652
G0 F7500 X141.417 Y130.585
G0 X133.073 Y122.807
G0 X132.759 Y123.142
G1 F1500 X183.33 Y173.714 E199.58462
G0 F7500 X182.897 Y173.846
G1 F1500 X124.414 Y115.363 E203.71091
G0 F7500 X124.728 Y115.027
G0 X116.383 Y107.249
G0 X116.07 Y107.584
G1 F1500 X182.464 Y173.979 E208.3954
G0 F7500 X182.031 Y174.111
