;FLAVOR:Marlin
;TIME:10261
;Filament used: 3.88461m
;Layer height: 0.1
;MINX:32.454
;MINY:33.654
;MINZ:0.3
;MAXX:212.635
;MAXY:186.51
;MAXZ:14.2
;Generated with Cura_SteamEngine 5.2.1
M140 S65
M105
M190 S65
M104 S235
M105
M109 S235
M82 ;absolute extrusion mode
G28 ;Home
G1 Z15.0 F2000 ;Move the platform
G92 E0
G92 E0
;LAYER_COUNT:140
;LAYER:0
M107
M204 S1000
G0 F7500 X33.96 Y35.185 Z0.3
;TYPE:SKIRT
G1 F1500 X34.442 Y34.757 E0.03216
G1 X34.973 Y34.391 E0.06433
G1 X35.545 Y34.094 E0.09649
G1 X36.149 Y33.87 E0.12863
G1 X36.777 Y33.723 E0.16081
G1 X37.418 Y33.654 E0.19297
G1 X38.062 Y33.665 E0.2251
G1 X38.701 Y33.756 E0.25731
G1 X39.323 Y33.925 E0.28946
G1 X39.919 Y34.17 E0.32161
G1 X40.481 Y34.487 E0.3538
G1 X40.867 Y34.764 E0.37751
G1 X41.218 Y35.044 E0.39991
G1 X210.303 Y176.922 E11.41187
G1 X210.838 Y177.385 E11.44717
G1 X211.298 Y177.836 E11.47931
G1 X211.699 Y178.341 E11.51148
G1 X212.035 Y178.892 E11.54368
G1 X212.299 Y179.479 E11.57579
G1 X212.489 Y180.095 E11.60795
G1 X212.602 Y180.73 E11.64013
G1 X212.635 Y181.374 E11.6723
G1 X212.588 Y182.017 E11.70447
G1 X212.461 Y182.649 E11.73663
G1 X212.258 Y183.261 E11.7688
G1 X211.98 Y183.843 E11.80098
G1 X211.633 Y184.386 E11.83312
G1 X211.221 Y184.882 E11.86529
G1 X210.751 Y185.323 E11.89745
G1 X210.23 Y185.702 E11.92959
G1 X209.666 Y186.014 E11.96175
G1 X209.067 Y186.254 E11.99394
G1 X208.444 Y186.418 E12.02608
G1 X207.805 Y186.504 E12.05825
G1 X207.16 Y186.51 E12.09043
G1 X206.682 Y186.462 E12.1144
G1 X206.293 Y186.403 E12.13403
G1 X177.957 Y181.409 E13.5695
G1 X177.266 Y181.277 E13.6046
G1 X176.642 Y181.117 E13.63674
G1 X176.042 Y180.881 E13.66891
G1 X175.476 Y180.572 E13.70108
G1 X175.026 Y180.255 E13.72854
G1 X174.67 Y179.971 E13.75126
G1 X44.954 Y71.127 E22.19926
G1 X44.395 Y70.645 E22.23608
G1 X43.934 Y70.195 E22.26822
G1 X43.532 Y69.691 E22.30038
G1 X43.196 Y69.141 E22.33254
G1 X42.957 Y68.622 E22.36105
G1 X42.781 Y68.173 E22.38511
G1 X32.964 Y41.204 E23.81696
G1 X32.739 Y40.557 E23.85114
G1 X32.565 Y39.936 E23.88331
G1 X32.469 Y39.299 E23.91545
G1 X32.454 Y38.654 E23.94764
G1 X32.518 Y38.013 E23.97978
G1 X32.661 Y37.384 E24.01196
G1 X32.88 Y36.778 E24.04411
G1 X33.173 Y36.204 E24.07626
G1 X33.535 Y35.67 E24.10845
G1 X33.96 Y35.185 E24.14062
G0 F7500 X34.401 Y35.315
G1 F1500 X34.884 Y34.926 E24.17156
G1 X35.412 Y34.603 E24.20244
G1 X35.977 Y34.35 E24.23332
G1 X36.57 Y34.172 E24.26421
G1 X37.181 Y34.072 E24.2951
G1 X37.8 Y34.051 E24.326
G1 X38.417 Y34.111 E24.35693
G1 X39.021 Y34.249 E24.38784
G1 X39.602 Y34.464 E24.41875
G1 X40.15 Y34.751 E24.44961
G1 X40.62 Y35.078 E24.47817
G1 X40.961 Y35.35 E24.49994
G1 X210.041 Y177.224 E35.51158
G1 X210.576 Y177.687 E35.54688
G1 X211.017 Y178.122 E35.57779
G1 X211.399 Y178.61 E35.60871
G1 X211.714 Y179.143 E35.63959
G1 X211.959 Y179.712 E35.6705
G1 X212.128 Y180.308 E35.70141
G1 X212.219 Y180.921 E35.73233
G1 X212.23 Y181.54 E35.76321
G1 X212.161 Y182.155 E35.79409
G1 X212.014 Y182.757 E35.825
G1 X211.79 Y183.335 E35.85593
G1 X211.494 Y183.879 E35.88683
G1 X211.131 Y184.38 E35.91769
G1 X210.706 Y184.83 E35.94857
G1 X210.226 Y185.222 E35.97949
G1 X209.7 Y185.549 E36.01039
G1 X209.136 Y185.805 E36.04129
G1 X208.544 Y185.987 E36.07219
G1 X207.933 Y186.091 E36.10311
G1 X207.315 Y186.115 E36.13397
G1 X206.739 Y186.066 E36.16281
G1 X206.363 Y186.009 E36.18178
G1 X178.032 Y181.016 E37.61701
G1 X177.341 Y180.884 E37.6521
G1 X176.742 Y180.729 E37.68297
G1 X176.167 Y180.497 E37.71391
G1 X175.627 Y180.194 E37.7448
G1 X175.274 Y179.941 E37.76646
G1 X174.927 Y179.665 E37.78859
G1 X45.216 Y70.824 E46.2363
G1 X44.657 Y70.342 E46.27312
G1 X44.215 Y69.908 E46.30402
G1 X43.832 Y69.421 E46.33493
G1 X43.516 Y68.889 E46.36581
G1 X43.328 Y68.475 E46.38849
G1 X43.204 Y68.162 E46.40529
G1 X33.341 Y41.073 E47.84355
G1 X33.116 Y40.426 E47.87773
G1 X32.951 Y39.829 E47.90863
G1 X32.864 Y39.216 E47.93952
G1 X32.857 Y38.596 E47.97045
G1 X32.929 Y37.981 E48.00135
G1 X33.08 Y37.38 E48.03226
G1 X33.307 Y36.804 E48.06315
G1 X33.607 Y36.262 E48.09406
G1 X33.974 Y35.763 E48.12496
G1 X34.401 Y35.315 E48.15584
G0 F7500 X34.844 Y35.46
G1 F1500 X35.325 Y35.114 E48.1854
G1 X35.848 Y34.835 E48.21497
G1 X36.404 Y34.629 E48.24455
G1 X36.983 Y34.5 E48.27415
G1 X37.574 Y34.45 E48.30374
G1 X38.166 Y34.479 E48.33331
G1 X38.749 Y34.588 E48.3629
G1 X39.312 Y34.775 E48.39249
G1 X39.844 Y35.035 E48.42204
G1 X40.372 Y35.392 E48.45383
G1 X40.704 Y35.656 E48.475
G1 X209.779 Y177.527 E59.48636
G1 X210.314 Y177.99 E59.52166
G1 X210.736 Y178.407 E59.55125
G1 X211.097 Y178.877 E59.58082
G1 X211.392 Y179.392 E59.61043
G1 X211.614 Y179.941 E59.63998
G1 X211.761 Y180.516 E59.66958
G1 X211.83 Y181.105 E59.69917
G1 X211.818 Y181.698 E59.72876
G1 X211.727 Y182.284 E59.75835
G1 X211.559 Y182.852 E59.7879
G1 X211.315 Y183.393 E59.81751
G1 X211 Y183.895 E59.84708
G1 X210.621 Y184.351 E59.87666
G1 X210.184 Y184.752 E59.90625
G1 X209.698 Y185.091 E59.93581
G1 X209.17 Y185.361 E59.9654
G1 X208.61 Y185.557 E59.995
G1 X208.029 Y185.677 E60.02459
G1 X207.438 Y185.717 E60.05415
G1 X206.729 Y185.666 E60.08961
G1 X178.107 Y180.623 E61.53956
G1 X177.416 Y180.491 E61.57466
G1 X176.843 Y180.341 E61.60421
G1 X176.295 Y180.115 E61.63378
G1 X175.782 Y179.817 E61.66338
G1 X175.521 Y179.627 E61.67949
G1 X175.184 Y179.359 E61.70097
G1 X45.477 Y70.521 E70.14843
G1 X44.918 Y70.039 E70.18526
G1 X44.496 Y69.623 E70.21482
G1 X44.134 Y69.153 E70.24442
G1 X43.838 Y68.639 E70.27401
G1 X43.7 Y68.328 E70.29098
G1 X43.532 Y67.899 E70.31397
G1 X33.719 Y40.941 E71.74524
G1 X33.494 Y40.294 E71.77942
G1 X33.338 Y39.722 E71.809
G1 X33.259 Y39.135 E71.83855
G1 X33.261 Y38.542 E71.86813
G1 X33.342 Y37.954 E71.89774
G1 X33.501 Y37.383 E71.92732
G1 X33.736 Y36.839 E71.95688
G1 X34.042 Y36.331 E71.98647
G1 X34.413 Y35.868 E72.01607
G1 X34.844 Y35.46 E72.04568
G0 F7500 X35.286 Y35.623
G1 F1500 X35.764 Y35.321 E72.07389
G1 X36.28 Y35.091 E72.10207
G1 X36.824 Y34.935 E72.1303
G1 X37.384 Y34.858 E72.15851
G1 X37.949 Y34.86 E72.18669
G1 X38.508 Y34.942 E72.21488
G1 X39.051 Y35.102 E72.24312
G1 X39.565 Y35.337 E72.27132
G1 X40.125 Y35.707 E72.30481
G1 X40.447 Y35.963 E72.32533
G1 X209.518 Y177.829 E83.33638
G1 X210.053 Y178.292 E83.37167
G1 X210.453 Y178.692 E83.3999
G1 X210.793 Y179.143 E83.42807
G1 X211.066 Y179.638 E83.45628
G1 X211.266 Y180.167 E83.48449
G1 X211.39 Y180.719 E83.51272
G1 X211.435 Y181.282 E83.5409
G1 X211.4 Y181.846 E83.56909
G1 X211.286 Y182.4 E83.59731
G1 X211.094 Y182.932 E83.62552
G1 X210.83 Y183.432 E83.65373
G1 X210.498 Y183.889 E83.68191
G1 X210.105 Y184.296 E83.71014
G1 X209.658 Y184.642 E83.73834
G1 X209.167 Y184.922 E83.76654
G1 X208.642 Y185.131 E83.79473
G1 X208.092 Y185.263 E83.82295
G1 X207.529 Y185.316 E83.85116
G1 X206.793 Y185.271 E83.88795
G1 X178.182 Y180.23 E85.33735
G1 X177.491 Y180.098 E85.37244
G1 X176.945 Y179.953 E85.40063
G1 X176.425 Y179.732 E85.42882
G1 X175.768 Y179.312 E85.46772
G1 X175.441 Y179.052 E85.48856
G1 X45.738 Y70.218 E93.93574
G1 X45.179 Y69.736 E93.97257
G1 X44.778 Y69.338 E94.00075
G1 X44.437 Y68.887 E94.02896
G1 X44.072 Y68.18 E94.06866
G1 X43.908 Y67.762 E94.09106
G1 X34.097 Y40.81 E95.52202
G1 X33.872 Y40.163 E95.55619
G1 X33.724 Y39.617 E95.58442
G1 X33.655 Y39.056 E95.61261
G1 X33.666 Y38.491 E95.64081
G1 X33.756 Y37.933 E95.66901
G1 X33.924 Y37.393 E95.69722
G1 X34.167 Y36.882 E95.72545
G1 X34.479 Y36.411 E95.75364
G1 X34.854 Y35.988 E95.78184
G1 X35.286 Y35.623 E95.81005
G0 F7500 X35.727 Y35.806
G1 F1500 X36.2 Y35.554 E95.83679
G1 X36.706 Y35.375 E95.86357
G1 X37.233 Y35.273 E95.89035
G1 X37.768 Y35.251 E95.91706
G1 X38.302 Y35.308 E95.94386
G1 X38.82 Y35.445 E95.97059
G1 X39.313 Y35.656 E95.99734
G1 X39.877 Y36.021 E96.03086
G1 X40.19 Y36.269 E96.05078
G1 X209.256 Y178.132 E107.06154
G1 X209.791 Y178.595 E107.09684
G1 X210.169 Y178.975 E107.12358
G1 X210.487 Y179.407 E107.15034
G1 X210.736 Y179.882 E107.1771
G1 X210.913 Y180.388 E107.20384
G1 X211.012 Y180.915 E107.2306
G1 X211.033 Y181.451 E107.25736
G1 X210.973 Y181.984 E107.28412
G1 X210.834 Y182.502 E107.31088
G1 X210.621 Y182.994 E107.33762
G1 X210.336 Y183.448 E107.36437
G1 X209.987 Y183.856 E107.39115
G1 X209.582 Y184.207 E107.41789
G1 X209.129 Y184.494 E107.44464
G1 X208.638 Y184.71 E107.47141
G1 X208.121 Y184.851 E107.49814
G1 X207.588 Y184.914 E107.52492
G1 X206.913 Y184.879 E107.55864
G1 X206.571 Y184.827 E107.5759
G1 X178.258 Y179.837 E109.01021
G1 X177.567 Y179.705 E109.04531
G1 X177.049 Y179.565 E109.07208
G1 X176.557 Y179.351 E109.09884
G1 X176.016 Y178.998 E109.13107
G1 X175.698 Y178.746 E109.15132
G1 X45.999 Y69.915 E117.59825
G1 X45.44 Y69.433 E117.63507
G1 X45.061 Y69.054 E117.66181
G1 X44.743 Y68.622 E117.68857
G1 X44.444 Y68.033 E117.72153
G1 X44.284 Y67.625 E117.74339
G1 X34.475 Y40.678 E119.17408
G1 X34.25 Y40.031 E119.20826
G1 X34.112 Y39.513 E119.235
G1 X34.052 Y38.98 E119.26176
G1 X34.073 Y38.444 E119.28852
G1 X34.173 Y37.917 E119.31528
G1 X34.35 Y37.411 E119.34203
G1 X34.6 Y36.937 E119.36876
G1 X34.918 Y36.505 E119.39553
G1 X35.296 Y36.125 E119.42227
G1 X35.727 Y35.806 E119.44902
G0 F7500 X35.738 Y36.283
G1 F1500 X36.166 Y36.014 E119.47424
G1 X36.631 Y35.815 E119.49947
G1 X37.122 Y35.693 E119.52471
G1 X37.626 Y35.649 E119.54995
G1 X38.13 Y35.685 E119.57516
G1 X38.622 Y35.8 E119.60037
G1 X39.09 Y35.991 E119.62559
G1 X39.63 Y36.335 E119.65753
G1 X39.933 Y36.576 E119.67685
G1 X208.994 Y178.434 E130.68726
G1 X209.529 Y178.897 E130.72255
G1 X209.884 Y179.257 E130.74778
G1 X210.178 Y179.669 E130.77303
G1 X210.403 Y180.121 E130.79822
G1 X210.554 Y180.604 E130.82347
G1 X210.628 Y181.104 E130.84868
G1 X210.622 Y181.609 E130.87388
G1 X210.536 Y182.108 E130.89914
G1 X210.373 Y182.586 E130.92434
G1 X210.136 Y183.033 E130.94958
G1 X209.832 Y183.437 E130.9748
G1 X209.468 Y183.788 E131.00003
G1 X209.054 Y184.077 E131.02522
G1 X208.599 Y184.298 E131.05046
G1 X208.115 Y184.444 E131.07568
G1 X207.614 Y184.512 E131.1009
G1 X206.971 Y184.483 E131.13302
G1 X206.641 Y184.433 E131.14967
G1 X178.333 Y179.444 E132.58372
G1 X177.642 Y179.312 E132.61882
G1 X177.154 Y179.178 E132.64407
G1 X176.694 Y178.969 E132.66928
G1 X176.263 Y178.684 E132.69506
G1 X176.033 Y178.503 E132.70966
G1 X46.26 Y69.612 E141.16134
G1 X45.701 Y69.13 E141.19816
G1 X45.346 Y68.771 E141.22335
G1 X45.051 Y68.36 E141.24859
G1 X44.816 Y67.886 E141.27499
G1 X44.66 Y67.489 E141.29627
G1 X34.853 Y40.547 E142.72669
G1 X34.628 Y39.9 E142.76087
G1 X34.5 Y39.411 E142.78608
G1 X34.451 Y38.908 E142.8113
G1 X34.481 Y38.403 E142.83654
G1 X34.591 Y37.91 E142.86174
G1 X34.777 Y37.44 E142.88695
G1 X35.035 Y37.005 E142.91219
G1 X35.358 Y36.616 E142.93741
G1 X35.738 Y36.283 E142.96262
;MESH:TETRAEDRr5.stl
G0 F7500 X38.027 Y41.852
G0 X178.498 Y175.613
;TYPE:WALL-INNER
G1 F1500 X205.364 Y180.349 E144.32364
G1 X38.959 Y40.718 E155.16112
G1 X48.29 Y66.356 E156.52229
G1 X178.498 Y175.613 E165.00233
G0 F7500 X178.323 Y175.989
;TYPE:WALL-OUTER
G1 F1500 X206.764 Y181.002 E166.44313
G1 X38.072 Y39.452 E177.42956
G1 X47.951 Y66.594 E178.87059
G1 X178.323 Y175.989 E187.36133
G0 F7500 X178.519 Y176.023
G0 X178.655 Y175.275
;TYPE:SKIN
G1 F1500 X204.098 Y179.76 E188.65025
G1 X39.759 Y41.861 E199.35324
G1 X48.595 Y66.143 E200.64238
G1 X178.655 Y175.275 E209.11276
G0 F7500 X178.488 Y175.473
G0 X203.065 Y179.842
G0 X203.146 Y179.388
G1 F1500 X202.122 Y178.363 E209.18505
G0 F7500 X201.773 Y179.146
G1 F1500 X195.09 Y172.462 E209.65661
G0 F7500 X195.387 Y172.109
G0 X198.902 Y175.059
G0 X198.605 Y175.412
G1 F1500 X202.46 Y179.267 E209.9286
G0 F7500 X202.379 Y179.721
G0 X201.006 Y179.479
G0 X201.087 Y179.025
G1 F1500 X191.573 Y169.511 E210.59986
G0 F7500 X191.87 Y169.158
G0 X188.354 Y166.208
G0 X188.057 Y166.561
G1 F1500 X200.4 Y178.904 E211.47073
G0 F7500 X199.713 Y178.782
G1 F1500 X184.541 Y163.611 E212.54116
G0 F7500 X184.839 Y163.258
G0 X181.322 Y160.307
G0 X181.024 Y160.66
G1 F1500 X199.026 Y178.661 E213.81126
G0 F7500 X198.339 Y178.54
G1 F1500 X177.509 Y157.71 E215.28093
G0 F7500 X177.806 Y157.357
G0 X174.289 Y154.406
G0 X173.992 Y154.759
G1 F1500 X197.653 Y178.42 E216.95034
G0 F7500 X196.966 Y178.299
G1 F1500 X170.476 Y151.808 E218.81939
G0 F7500 X170.773 Y151.455
G0 X167.257 Y148.505
G0 X166.96 Y148.858
G1 F1500 X196.279 Y178.177 E220.888
G0 F7500 X195.592 Y178.056
G1 F1500 X163.444 Y145.907 E223.15625
G0 F7500 X163.741 Y145.555
G0 X160.224 Y142.604
G0 X159.927 Y142.957
G1 F1500 X194.906 Y177.935 E225.62417
G0 F7500 X194.219 Y177.814
G1 F1500 X156.412 Y140.007 E228.29166
G0 F7500 X156.709 Y139.654
G0 X153.192 Y136.703
G0 X152.895 Y137.056
G1 F1500 X193.533 Y177.693 E231.15886
G0 F7500 X192.845 Y177.572
G1 F1500 X149.379 Y134.106 E234.22562
G0 F7500 X149.676 Y133.753
G0 X146.16 Y130.802
G0 X145.863 Y131.155
G1 F1500 X192.159 Y177.451 E237.49205
G0 F7500 X191.472 Y177.33
G1 F1500 X142.346 Y128.204 E240.95816
G0 F7500 X142.643 Y127.851
G0 X139.128 Y124.902
G0 X138.831 Y125.254
G1 F1500 X190.785 Y177.209 E244.62383
G0 F7500 X190.099 Y177.088
G1 F1500 X135.314 Y122.304 E248.48917
G0 F7500 X135.611 Y121.951
G0 X132.095 Y119
G0 X131.798 Y119.353
G1 F1500 X189.411 Y176.966 E252.55408
G0 F7500 X188.725 Y176.845
G1 F1500 X128.282 Y116.403 E256.81862
G0 F7500 X128.579 Y116.05
G0 X125.063 Y113.1
G0 X124.766 Y113.452
G1 F1500 X188.038 Y176.725 E261.28284
G0 F7500 X187.352 Y176.604
G1 F1500 X121.25 Y110.502 E265.94669
G0 F7500 X121.547 Y110.15
G0 X118.03 Y107.198
G0 X117.733 Y107.551
G1 F1500 X186.665 Y176.483 E270.81022
G0 F7500 X185.978 Y176.361
G1 F1500 X114.217 Y104.6 E275.87334
G0 F7500 X114.514 Y104.248
G0 X110.998 Y101.298
G0 X110.701 Y101.65
G1 F1500 X185.291 Y176.24 E281.13607
G0 F7500 X184.605 Y176.119
G1 F1500 X107.185 Y98.7 E286.59843
G0 F7500 X107.482 Y98.347
G0 X103.965 Y95.396
G0 X103.668 Y95.749
G1 F1500 X183.918 Y175.998 E292.26047
G0 F7500 X183.231 Y175.877
G1 F1500 X100.153 Y92.799 E298.12207
G0 F7500 X100.45 Y92.447
G0 X96.933 Y89.496
G0 X96.636 Y89.848
G1 F1500 X182.545 Y175.757 E304.18342
G0 F7500 X181.857 Y175.635
G1 F1500 X93.121 Y86.898 E310.44425
G0 F7500 X93.418 Y86.546
G0 X89.901 Y83.595
G0 X89.604 Y83.947
G1 F1500 X181.171 Y175.514 E316.9048
G0 F7500 X180.484 Y175.393
G1 F1500 X86.088 Y80.996 E323.56498
G0 F7500 X86.384 Y80.644
G0 X82.869 Y77.695
G0 X82.572 Y78.046
G1 F1500 X179.798 Y175.272 E330.4248
G0 F7500 X179.111 Y175.151
G1 F1500 X79.055 Y75.096 E337.48426
G0 F7500 X79.352 Y74.743
G0 X75.836 Y71.793
G0 X75.539 Y72.145
G1 F1500 X177.116 Y173.721 E344.65103
G0 F7500 X177.193 Y174.387
G0 X173.303 Y171.123
G0 X173.6 Y170.771
G1 F1500 X72.023 Y69.195 E351.8178
G0 F7500 X72.32 Y68.843
G0 X68.804 Y65.893
G0 X68.507 Y66.244
G1 F1500 X170.084 Y167.821 E358.98461
G0 F7500 X169.787 Y168.173
G0 X166.272 Y165.223
G0 X166.568 Y164.871
G1 F1500 X64.991 Y63.294 E366.15141
G0 F7500 X65.288 Y62.942
G0 X61.771 Y59.991
G0 X61.475 Y60.343
G1 F1500 X163.053 Y161.921 E373.31829
G0 F7500 X162.756 Y162.273
G0 X159.24 Y159.323
G0 X159.537 Y158.971
G1 F1500 X57.958 Y57.393 E380.4852
G0 F7500 X58.255 Y57.041
G0 X54.738 Y54.09
G0 X54.442 Y54.442
G1 F1500 X156.021 Y156.021 E387.65215
G0 F7500 X155.725 Y156.373
G0 X152.209 Y153.423
G0 X152.505 Y153.071
G1 F1500 X50.926 Y51.492 E394.8191
G0 F7500 X51.223 Y51.14
G0 X47.706 Y48.189
G0 X47.41 Y48.541
G1 F1500 X148.99 Y150.121 E401.98611
G0 F7500 X148.693 Y150.473
G0 X145.178 Y147.523
G0 X145.474 Y147.171
G1 F1500 X43.894 Y45.591 E409.15313
G0 F7500 X44.19 Y45.239
G0 X39.38 Y41.319
G0 X41.047 Y46.162
G0 X41.48 Y46.005
G1 F1500 X127.895 Y132.421 E415.25021
G0 F7500 X127.599 Y132.773
G0 X124.084 Y129.823
G0 X124.38 Y129.471
G1 F1500 X41.803 Y46.894 E421.07646
