;FLAVOR:Marlin
;TIME:9338
;Filament used: 3.64755m
;Layer height: 0.1
;MINX:34.689
;MINY:28.592
;MINZ:0.3
;MAXX:189.447
;MAXY:182.304
;MAXZ:14.3
;Generated with Cura_SteamEngine 5.2.1
M140 S65
M105
M190 S65
M104 S235
M105
M109 S235
M82 ;absolute extrusion mode
G28 ;Home
G1 Z15.0 F2000 ;Move the platform
G92 E0
G92 E0
;LAYER_COUNT:141
;LAYER:0
M107
M204 S1000
G0 F7500 X40.2 Y30.643 Z0.3
;TYPE:SKIRT
G1 F1500 X40.62 Y30.154 E0.03216
G1 X41.098 Y29.722 E0.0643
G1 X41.626 Y29.351 E0.0965
G1 X42.195 Y29.049 E0.12864
G1 X42.798 Y28.82 E0.16082
G1 X43.424 Y28.667 E0.19297
G1 X44.064 Y28.592 E0.22512
G1 X44.709 Y28.598 E0.2573
G1 X45.348 Y28.683 E0.28946
G1 X45.972 Y28.847 E0.32165
G1 X46.57 Y29.086 E0.35377
G1 X47.135 Y29.398 E0.38597
G1 X47.656 Y29.777 E0.41812
G1 X47.968 Y30.057 E0.43903
G1 X48.565 Y30.639 E0.48063
G1 X186.825 Y168.936 E10.23692
G1 X187.328 Y169.453 E10.27291
G1 X187.748 Y169.942 E10.30507
G1 X188.104 Y170.479 E10.33721
G1 X188.392 Y171.056 E10.36939
G1 X188.619 Y171.715 E10.40416
G1 X189.256 Y174.058 E10.5253
G1 X189.386 Y174.689 E10.55744
G1 X189.437 Y175.31 E10.58852
G1 X189.447 Y175.775 E10.61173
G1 X189.44 Y176.174 E10.63164
G1 X189.417 Y176.59 E10.65242
G1 X189.342 Y177.23 E10.68457
G1 X189.26 Y177.601 E10.70353
G1 X189.123 Y178.125 E10.73055
G1 X189.001 Y178.549 E10.75256
G1 X188.785 Y179.156 E10.7847
G1 X188.495 Y179.732 E10.81688
G1 X188.136 Y180.268 E10.84906
G1 X187.714 Y180.755 E10.88121
G1 X187.235 Y181.186 E10.91336
G1 X186.706 Y181.554 E10.94551
G1 X186.135 Y181.854 E10.97769
G1 X185.532 Y182.082 E11.00985
G1 X184.905 Y182.232 E11.04201
G1 X184.264 Y182.304 E11.0742
G1 X183.62 Y182.297 E11.10633
G1 X183.052 Y182.223 E11.1349
G1 X181.505 Y181.935 E11.21341
G1 X178.876 Y181.485 E11.34648
G1 X174.678 Y180.88 E11.55808
G1 X172.267 Y180.592 E11.67922
G1 X171.698 Y180.492 E11.70804
G1 X171.301 Y180.397 E11.72841
G1 X168.893 Y179.768 E11.85258
G1 X165.416 Y178.823 E12.03234
G1 X164.721 Y178.624 E12.0684
G1 X164.113 Y178.409 E12.10058
G1 X163.759 Y178.242 E12.12011
G1 X162.761 Y177.724 E12.1762
G1 X162.175 Y177.409 E12.2094
G1 X159.764 Y176.204 E12.34387
G1 X157.957 Y175.345 E12.44369
G1 X157.393 Y175.033 E12.47584
G1 X156.872 Y174.653 E12.50802
G1 X156.611 Y174.422 E12.5254
G1 X156.361 Y174.185 E12.54259
G1 X36.643 Y54.536 E20.98691
G1 X36.155 Y54.033 E21.02187
G1 X35.735 Y53.543 E21.05407
G1 X35.38 Y53.005 E21.08623
G1 X35.094 Y52.428 E21.11836
G1 X34.881 Y51.819 E21.15054
G1 X34.745 Y51.189 E21.1827
G1 X34.689 Y50.547 E21.21485
G1 X34.712 Y49.903 E21.247
G1 X34.845 Y49.141 E21.28559
G1 X35.039 Y48.372 E21.32516
G1 X39.138 Y33.08 E22.11501
G1 X39.341 Y32.365 E22.15209
G1 X39.555 Y31.757 E22.18425
G1 X39.843 Y31.18 E22.21642
G1 X40.2 Y30.643 E22.2486
G0 F7500 X40.563 Y30.827
G1 F1500 X40.975 Y30.365 E22.27948
G1 X41.444 Y29.96 E22.31039
G1 X41.96 Y29.618 E22.34128
G1 X42.517 Y29.346 E22.3722
G1 X43.104 Y29.148 E22.40311
G1 X43.711 Y29.027 E22.43399
G1 X44.329 Y28.985 E22.46489
G1 X44.947 Y29.023 E22.49578
G1 X45.555 Y29.141 E22.52668
G1 X46.143 Y29.335 E22.55757
G1 X46.701 Y29.604 E22.58848
G1 X47.22 Y29.943 E22.61941
G1 X47.689 Y30.344 E22.65019
G1 X48.283 Y30.921 E22.69151
G1 X186.538 Y169.215 E32.44752
G1 X187.041 Y169.732 E32.4835
G1 X187.444 Y170.203 E32.51443
G1 X187.782 Y170.721 E32.54529
G1 X188.051 Y171.279 E32.57619
G1 X188.233 Y171.82 E32.60467
G1 X188.87 Y174.163 E32.72581
G1 X188.993 Y174.77 E32.75671
G1 X189.037 Y175.319 E32.78418
G1 X189.047 Y175.784 E32.80739
G1 X189.041 Y176.152 E32.82575
G1 X189.018 Y176.568 E32.84654
G1 X188.944 Y177.183 E32.87744
G1 X188.873 Y177.501 E32.89369
G1 X188.739 Y178.014 E32.92015
G1 X188.617 Y178.438 E32.94216
G1 X188.408 Y179.021 E32.97306
G1 X188.125 Y179.572 E33.00396
G1 X187.774 Y180.082 E33.03485
G1 X187.36 Y180.543 E33.06576
G1 X186.89 Y180.947 E33.09668
G1 X186.372 Y181.286 E33.12757
G1 X185.815 Y181.556 E33.15845
G1 X185.227 Y181.753 E33.18939
G1 X184.619 Y181.871 E33.22029
G1 X184.001 Y181.911 E33.25118
G1 X183.126 Y181.83 E33.29502
G1 X181.592 Y181.544 E33.37287
G1 X178.922 Y181.088 E33.50801
G1 X174.743 Y180.485 E33.71866
G1 X172.314 Y180.195 E33.8407
G1 X171.789 Y180.103 E33.86729
G1 X171.52 Y180.04 E33.88108
G1 X168.998 Y179.382 E34.01111
G1 X165.526 Y178.439 E34.19061
G1 X164.831 Y178.24 E34.22667
G1 X164.248 Y178.031 E34.25757
G1 X163.943 Y177.887 E34.2744
G1 X163.011 Y177.404 E34.32677
G1 X162.364 Y177.056 E34.36342
G1 X159.956 Y175.852 E34.49774
G1 X158.129 Y174.984 E34.59865
G1 X157.588 Y174.682 E34.62956
G1 X156.887 Y174.131 E34.67405
G1 X156.546 Y173.806 E34.69755
G1 X36.93 Y54.257 E43.13474
G1 X36.442 Y53.754 E43.1697
G1 X36.04 Y53.283 E43.2006
G1 X35.703 Y52.764 E43.23147
G1 X35.435 Y52.205 E43.2624
G1 X35.241 Y51.617 E43.29329
G1 X35.124 Y51.009 E43.32418
G1 X35.087 Y50.391 E43.35507
G1 X35.13 Y49.773 E43.38597
G1 X35.233 Y49.238 E43.41315
G1 X35.426 Y48.475 E43.45242
G1 X39.544 Y33.115 E44.2458
G1 X39.726 Y32.474 E44.27904
G1 X39.933 Y31.89 E44.30995
G1 X40.213 Y31.338 E44.34083
G1 X40.563 Y30.827 E44.37173
G0 F7500 X40.925 Y31.014
G1 F1500 X41.329 Y30.58 E44.40131
G1 X41.787 Y30.203 E44.43091
G1 X42.292 Y29.892 E44.4605
G1 X42.834 Y29.652 E44.49007
G1 X43.403 Y29.487 E44.51963
G1 X43.99 Y29.399 E44.54924
G1 X44.583 Y29.392 E44.57883
G1 X45.171 Y29.464 E44.60838
G1 X45.745 Y29.614 E44.63798
G1 X46.293 Y29.841 E44.66757
G1 X46.805 Y30.139 E44.69713
G1 X47.411 Y30.631 E44.73607
G1 X48 Y31.204 E44.77707
G1 X186.252 Y169.494 E54.53283
G1 X186.755 Y170.011 E54.56882
G1 X187.139 Y170.463 E54.59841
G1 X187.458 Y170.962 E54.62796
G1 X187.708 Y171.5 E54.65755
G1 X187.847 Y171.925 E54.67986
G1 X188.484 Y174.268 E54.801
G1 X188.601 Y174.849 E54.83057
G1 X188.637 Y175.327 E54.85448
G1 X188.647 Y175.792 E54.87769
G1 X188.641 Y176.13 E54.89455
G1 X188.618 Y176.546 E54.91534
G1 X188.486 Y177.401 E54.9585
G1 X188.387 Y177.785 E54.97828
G1 X188.232 Y178.328 E55.00646
G1 X188.03 Y178.885 E55.03602
G1 X187.755 Y179.41 E55.06558
G1 X187.412 Y179.894 E55.09518
G1 X187.007 Y180.327 E55.12476
G1 X186.547 Y180.701 E55.15434
G1 X186.041 Y181.011 E55.18394
G1 X185.499 Y181.249 E55.21347
G1 X184.929 Y181.413 E55.24307
G1 X184.342 Y181.498 E55.27266
G1 X183.749 Y181.504 E55.30224
G1 X183.199 Y181.437 E55.32989
G1 X181.656 Y181.15 E55.40819
G1 X178.975 Y180.691 E55.54389
G1 X174.803 Y180.09 E55.75418
G1 X172.362 Y179.798 E55.87683
G1 X171.881 Y179.713 E55.9012
G1 X171.503 Y179.623 E55.92058
G1 X169.103 Y178.996 E56.04434
G1 X165.636 Y178.054 E56.22358
G1 X164.941 Y177.855 E56.25965
G1 X164.127 Y177.532 E56.30334
G1 X163.139 Y177.019 E56.35888
G1 X162.525 Y176.69 E56.39363
G1 X160.109 Y175.481 E56.52841
G1 X158.301 Y174.622 E56.62828
G1 X157.784 Y174.332 E56.65785
G1 X157.162 Y173.841 E56.69739
G1 X156.829 Y173.523 E56.72036
G1 X37.217 Y53.979 E65.15723
G1 X36.729 Y53.476 E65.1922
G1 X36.346 Y53.023 E65.22179
G1 X36.027 Y52.524 E65.25134
G1 X35.778 Y51.985 E65.28096
G1 X35.604 Y51.419 E65.3105
G1 X35.507 Y50.833 E65.34014
G1 X35.49 Y50.241 E65.36969
G1 X35.553 Y49.651 E65.39929
G1 X35.621 Y49.336 E65.41537
G1 X35.812 Y48.579 E65.45432
G1 X39.928 Y33.224 E66.24742
G1 X40.11 Y32.583 E66.28067
G1 X40.31 Y32.025 E66.31024
G1 X40.584 Y31.499 E66.33983
G1 X40.925 Y31.014 E66.36941
G0 F7500 X41.286 Y31.205
G1 F1500 X41.68 Y30.8 E66.3976
G1 X42.128 Y30.454 E66.42584
G1 X42.62 Y30.175 E66.45406
G1 X43.146 Y29.968 E66.48226
G1 X43.696 Y29.838 E66.51045
G1 X44.259 Y29.786 E66.53866
G1 X44.823 Y29.814 E66.56683
G1 X45.378 Y29.921 E66.59503
G1 X45.913 Y30.106 E66.62328
G1 X46.416 Y30.364 E66.65148
G1 X46.877 Y30.69 E66.67965
G1 X47.132 Y30.917 E66.69668
G1 X47.717 Y31.487 E66.73743
G1 X185.965 Y169.773 E76.49291
G1 X186.468 Y170.29 E76.5289
G1 X186.833 Y170.722 E76.55712
G1 X187.133 Y171.201 E76.58531
G1 X187.362 Y171.717 E76.61348
G1 X187.461 Y172.03 E76.62986
G1 X188.098 Y174.373 E76.75099
G1 X188.207 Y174.927 E76.77916
G1 X188.237 Y175.336 E76.79962
G1 X188.247 Y175.801 E76.82283
G1 X188.242 Y176.108 E76.83814
G1 X188.219 Y176.524 E76.85893
G1 X188.098 Y177.302 E76.89821
G1 X187.97 Y177.793 E76.92353
G1 X187.848 Y178.217 E76.94554
G1 X187.654 Y178.748 E76.97374
G1 X187.386 Y179.246 E77.00196
G1 X187.052 Y179.702 E77.03016
G1 X186.656 Y180.105 E77.05834
G1 X186.207 Y180.449 E77.08656
G1 X185.715 Y180.727 E77.11476
G1 X185.188 Y180.932 E77.14297
G1 X184.637 Y181.061 E77.1712
G1 X184.074 Y181.11 E77.1994
G1 X183.272 Y181.043 E77.23955
G1 X181.771 Y180.764 E77.31571
G1 X179.016 Y180.293 E77.45516
G1 X174.874 Y179.696 E77.66394
G1 X172.409 Y179.401 E77.78779
G1 X171.972 Y179.324 E77.80993
G1 X171.703 Y179.261 E77.82372
G1 X169.207 Y178.61 E77.95241
G1 X165.746 Y177.669 E78.13135
G1 X165.051 Y177.47 E78.16741
G1 X164.312 Y177.176 E78.20709
G1 X163.328 Y176.666 E78.26239
G1 X162.715 Y176.337 E78.29709
G1 X160.32 Y175.139 E78.4307
G1 X158.472 Y174.261 E78.53277
G1 X157.98 Y173.983 E78.56096
G1 X157.437 Y173.551 E78.59558
G1 X157.111 Y173.24 E78.61806
G1 X37.504 Y53.7 E87.05462
G1 X37.016 Y53.197 E87.08958
G1 X36.652 Y52.765 E87.11776
G1 X36.353 Y52.285 E87.14598
G1 X36.124 Y51.768 E87.17419
G1 X35.97 Y51.224 E87.20239
G1 X35.895 Y50.664 E87.23058
G1 X35.899 Y50.099 E87.25877
G1 X36.008 Y49.434 E87.29239
G1 X36.198 Y48.682 E87.33109
G1 X40.313 Y33.333 E88.12389
G1 X40.495 Y32.692 E88.15714
G1 X40.688 Y32.161 E88.18532
G1 X40.953 Y31.662 E88.21351
G1 X41.286 Y31.205 E88.24172
G0 F7500 X41.646 Y31.4
G1 F1500 X42.03 Y31.026 E88.26847
G1 X42.466 Y30.713 E88.29524
G1 X42.943 Y30.468 E88.322
G1 X43.451 Y30.297 E88.34874
G1 X43.979 Y30.203 E88.37549
G1 X44.515 Y30.189 E88.40224
G1 X45.047 Y30.255 E88.42899
G1 X45.564 Y30.398 E88.45575
G1 X46.054 Y30.617 E88.48253
G1 X46.505 Y30.907 E88.50928
G1 X46.853 Y31.204 E88.5321
G1 X47.434 Y31.77 E88.57257
G1 X185.678 Y170.052 E98.32777
G1 X186.181 Y170.569 E98.36376
G1 X186.526 Y170.98 E98.39053
G1 X186.805 Y171.438 E98.41729
G1 X187.075 Y172.135 E98.45458
G1 X187.712 Y174.478 E98.57571
G1 X187.814 Y175.004 E98.60244
G1 X187.837 Y175.345 E98.6195
G1 X187.847 Y175.81 E98.6427
G1 X187.843 Y176.086 E98.65647
G1 X187.82 Y176.502 E98.67726
G1 X187.711 Y177.202 E98.7126
G1 X187.586 Y177.682 E98.73735
G1 X187.464 Y178.106 E98.75936
G1 X187.277 Y178.609 E98.78613
G1 X187.018 Y179.079 E98.8129
G1 X186.693 Y179.505 E98.83964
G1 X186.307 Y179.878 E98.86642
G1 X185.871 Y180.189 E98.89313
G1 X185.393 Y180.432 E98.91989
G1 X184.884 Y180.602 E98.94666
G1 X184.355 Y180.694 E98.97345
G1 X183.819 Y180.706 E99.0002
G1 X183.345 Y180.65 E99.02401
G1 X181.794 Y180.361 E99.10272
G1 X179.106 Y179.901 E99.23877
G1 X174.934 Y179.3 E99.44906
G1 X172.457 Y179.004 E99.57352
G1 X172.063 Y178.934 E99.59349
G1 X171.705 Y178.849 E99.61184
G1 X169.312 Y178.224 E99.73524
G1 X165.856 Y177.285 E99.91391
G1 X165.161 Y177.086 E99.94997
G1 X164.496 Y176.821 E99.98569
G1 X163.518 Y176.314 E100.04065
G1 X162.918 Y175.992 E100.07462
G1 X160.472 Y174.768 E100.21108
G1 X158.644 Y173.9 E100.31204
G1 X158.178 Y173.634 E100.33881
G1 X157.712 Y173.261 E100.36859
G1 X157.462 Y173.024 E100.38577
G1 X37.791 Y53.422 E108.82677
G1 X37.303 Y52.919 E108.86174
G1 X36.959 Y52.507 E108.88852
G1 X36.681 Y52.049 E108.91524
G1 X36.473 Y51.555 E108.94199
G1 X36.341 Y51.035 E108.96875
G1 X36.288 Y50.501 E108.99552
G1 X36.315 Y49.965 E109.0223
G1 X36.396 Y49.532 E109.04428
G1 X36.585 Y48.786 E109.08267
G1 X40.698 Y33.443 E109.87516
G1 X40.88 Y32.802 E109.90841
G1 X41.064 Y32.298 E109.93517
G1 X41.322 Y31.828 E109.96192
G1 X41.646 Y31.4 E109.9887
G0 F7500 X42.004 Y31.601
G1 F1500 X42.377 Y31.26 E110.01392
G1 X42.799 Y30.982 E110.03913
G1 X43.26 Y30.774 E110.06436
G1 X43.748 Y30.641 E110.0896
G1 X44.251 Y30.586 E110.11484
G1 X44.755 Y30.612 E110.14002
G1 X45.25 Y30.716 E110.16525
G1 X45.722 Y30.897 E110.19047
G1 X46.16 Y31.151 E110.21573
G1 X46.574 Y31.491 E110.24246
G1 X47.151 Y32.053 E110.28265
G1 X185.392 Y170.331 E120.0376
G1 X185.895 Y170.848 E120.07359
G1 X186.217 Y171.237 E120.09878
G1 X186.475 Y171.672 E120.12401
G1 X186.689 Y172.239 E120.15425
G1 X187.326 Y174.582 E120.27538
G1 X187.42 Y175.079 E120.30062
G1 X187.437 Y175.353 E120.31432
G1 X187.45 Y175.943 E120.34376
G1 X187.42 Y176.48 E120.37059
G1 X187.324 Y177.102 E120.40199
G1 X187.225 Y177.486 E120.42177
G1 X187.079 Y177.996 E120.44824
G1 X186.901 Y178.469 E120.47345
G1 X186.651 Y178.909 E120.4987
G1 X186.335 Y179.303 E120.5239
G1 X185.961 Y179.643 E120.54912
G1 X185.538 Y179.919 E120.57431
G1 X185.076 Y180.126 E120.59957
G1 X184.588 Y180.257 E120.62478
G1 X184.085 Y180.31 E120.65001
G1 X183.418 Y180.257 E120.6834
G1 X181.868 Y179.969 E120.76205
G1 X179.152 Y179.504 E120.89952
G1 X174.958 Y178.899 E121.11093
G1 X172.504 Y178.606 E121.23423
G1 X172.154 Y178.545 E121.25195
G1 X171.885 Y178.482 E121.26574
G1 X169.417 Y177.838 E121.39299
G1 X165.966 Y176.9 E121.57141
G1 X165.271 Y176.701 E121.60747
G1 X164.68 Y176.466 E121.6392
G1 X163.707 Y175.962 E121.69387
G1 X163.094 Y175.633 E121.72858
G1 X160.605 Y174.388 E121.86743
G1 X158.816 Y173.538 E121.96624
G1 X158.378 Y173.286 E121.99145
G1 X157.987 Y172.97 E122.01653
G1 X157.737 Y172.733 E122.03372
G1 X38.078 Y53.143 E130.47387
G1 X37.59 Y52.64 E130.50884
G1 X37.268 Y52.251 E130.53403
G1 X37.011 Y51.815 E130.55928
G1 X36.826 Y51.345 E130.58448
G1 X36.717 Y50.851 E130.60972
G1 X36.688 Y50.346 E130.63496
G1 X36.784 Y49.63 E130.671
G1 X36.971 Y48.889 E130.70913
G1 X41.083 Y33.552 E131.50132
G1 X41.265 Y32.911 E131.53456
G1 X41.441 Y32.437 E131.55978
G1 X41.689 Y31.997 E131.58498
G1 X42.004 Y31.601 E131.61023
G0 F7500 X39.14 Y50.613
G0 X159.843 Y171.252
G0 X165.562 Y173.249
G0 X165.974 Y173.355
;TYPE:SUPPORT
G1 F1500 X168.473 Y173.355 E131.7349
G0 F7500 X168.021 Y173.235
G1 F1500 X168.021 Y174.392 E131.79263
G0 F7500 X170.688 Y173.949
G1 F1500 X170.688 Y175.111 E131.8506
G0 F7500 X173.355 Y175.006
G1 F1500 X173.355 Y174.663 E131.86771
G0 F7500 X173.836 Y174.984
G0 X176.404 Y175.91
G0 X176.815 Y176.022
G1 F1500 X177.851 Y176.022 E131.9194
G0 F7500 X178.245 Y176.171
G0 X182.275 Y177.248
G0 X183.298 Y176.022
G1 F1500 X184.486 Y176.022 E131.97867
G0 F7500 X184.023 Y175.058
G1 F1500 X184.023 Y177.374 E132.09421
;MESH:TETRAEDRr1.stl
G0 F7500 X182.345 Y176.166
G0 X160.497 Y170.119
;TYPE:WALL-INNER
G1 F1500 X182.22 Y175.939 E133.2162
G1 X182.676 Y174.235 E133.3042
G1 X182.939 Y173.253 E133.35492
G1 X44.649 Y34.925 E143.11337
G1 X40.546 Y50.237 E143.90424
G1 X160.497 Y170.119 E152.365
G0 F7500 X160.29 Y170.478
;TYPE:WALL-OUTER
G1 F1500 X182.451 Y176.416 E153.50961
G1 X182.555 Y176.236 E153.51999
G1 X183.062 Y174.339 E153.61795
G1 X183.385 Y173.133 E153.68024
G1 X44.442 Y34.152 E163.48476
G1 X40.1 Y50.357 E164.32175
G1 X160.29 Y170.478 E172.79937
G0 F7500 X160.483 Y170.529
G0 X160.685 Y169.796
;TYPE:SKIN
G1 F1500 X181.964 Y175.496 E173.89841
G1 X182.536 Y173.36 E174.00873
G1 X52.8 Y43.588 E183.16357
G1 X44.836 Y35.621 E183.72558
G1 X40.949 Y50.13 E184.47497
G1 X160.685 Y169.796 E192.92052
G0 F7500 X161.256 Y169.741
G1 F1500 X41.258 Y49.743 E201.38703
G0 F7500 X41.377 Y49.297
G1 F1500 X162.029 Y169.948 E209.89964
G0 F7500 X162.802 Y170.156
G1 F1500 X41.497 Y48.851 E218.45836
G0 F7500 X41.616 Y48.404
G1 F1500 X163.574 Y170.362 E227.06316
G0 F7500 X164.347 Y170.569
G1 F1500 X41.736 Y47.958 E235.71403
G0 F7500 X41.855 Y47.512
G1 F1500 X165.12 Y170.776 E244.411
G0 F7500 X165.892 Y170.984
G1 F1500 X41.975 Y47.066 E253.15405
G0 F7500 X42.094 Y46.62
G1 F1500 X166.665 Y171.19 E261.94317
G0 F7500 X167.437 Y171.397
G1 F1500 X42.214 Y46.174 E270.77833
G0 F7500 X42.333 Y45.727
G1 F1500 X168.21 Y171.604 E279.65963
G0 F7500 X168.982 Y171.811
G1 F1500 X42.453 Y45.281 E288.58697
