;FLAVOR:Marlin
;TIME:11305
;Filament used: 4.03308m
;Layer height: 0.1
;MINX:32.984
;MINY:21.346
;MINZ:0.3
;MAXX:199.994
;MAXY:188.355
;MAXZ:14.2
;Generated with Cura_SteamEngine 5.2.1
M140 S65
M105
M190 S65
M104 S235
M105
M109 S235
M82 ;absolute extrusion mode
G28 ;Home
G1 Z15.0 F2000 ;Move the platform
G92 E0
G92 E0
;LAYER_COUNT:140
;LAYER:0
M107
M204 S1000
G0 F7500 X33.954 Y23.516 Z0.3
;TYPE:SKIRT
G1 F1500 X34.361 Y23.016 E0.03216
G1 X34.827 Y22.57 E0.06435
G1 X35.344 Y22.185 E0.09651
G1 X35.905 Y21.867 E0.12868
G1 X36.501 Y21.621 E0.16085
G1 X37.122 Y21.451 E0.19297
G1 X37.76 Y21.358 E0.22513
G1 X38.405 Y21.346 E0.25732
G1 X39.046 Y21.413 E0.28947
G1 X39.674 Y21.559 E0.32164
G1 X40.279 Y21.782 E0.35381
G1 X40.852 Y22.077 E0.38596
G1 X41.383 Y22.442 E0.41811
G1 X41.744 Y22.751 E0.44181
G1 X42.042 Y23.034 E0.46232
G1 X198.041 Y179.034 E11.46892
G1 X198.525 Y179.532 E11.50357
G1 X198.945 Y180.021 E11.53573
G1 X199.301 Y180.559 E11.56792
G1 X199.588 Y181.136 E11.60007
G1 X199.801 Y181.744 E11.63221
G1 X199.937 Y182.374 E11.66436
G1 X199.994 Y183.017 E11.69657
G1 X199.971 Y183.661 E11.72872
G1 X199.869 Y184.297 E11.76085
G1 X199.689 Y184.916 E11.79301
G1 X199.434 Y185.508 E11.82517
G1 X199.107 Y186.064 E11.85735
G1 X198.714 Y186.575 E11.88951
G1 X198.261 Y187.034 E11.92169
G1 X197.754 Y187.432 E11.95385
G1 X197.202 Y187.766 E11.98603
G1 X196.614 Y188.028 E12.01815
G1 X195.997 Y188.215 E12.05032
G1 X195.361 Y188.325 E12.08252
G1 X194.717 Y188.355 E12.11468
G1 X194.075 Y188.306 E12.1468
G1 X193.606 Y188.218 E12.17061
G1 X193.199 Y188.12 E12.1915
G1 X165.448 Y180.684 E13.62484
G1 X164.751 Y180.487 E13.66098
G1 X164.142 Y180.274 E13.69316
G1 X163.565 Y179.986 E13.72534
G1 X163.028 Y179.63 E13.75748
G1 X162.602 Y179.27 E13.78531
G1 X162.217 Y178.905 E13.81177
G1 X42.645 Y59.333 E22.24822
G1 X42.129 Y58.802 E22.28516
G1 X41.709 Y58.313 E22.31732
G1 X41.353 Y57.775 E22.34951
G1 X41.066 Y57.198 E22.38166
G1 X40.877 Y56.671 E22.40959
G1 X40.734 Y56.187 E22.43477
G1 X33.323 Y28.528 E23.86336
G1 X33.143 Y27.815 E23.90005
G1 X33.024 Y27.182 E23.93218
G1 X32.984 Y26.538 E23.96437
G1 X33.024 Y25.895 E23.99651
G1 X33.144 Y25.261 E24.02871
G1 X33.341 Y24.647 E24.06088
G1 X33.613 Y24.063 E24.09302
G1 X33.954 Y23.516 E24.12518
G0 F7500 X34.381 Y23.612
G1 F1500 X34.79 Y23.147 E24.15607
G1 X35.255 Y22.738 E24.18697
G1 X35.769 Y22.393 E24.21785
G1 X36.324 Y22.116 E24.2488
G1 X36.909 Y21.913 E24.27969
G1 X37.515 Y21.788 E24.31056
G1 X38.133 Y21.741 E24.34148
G1 X38.751 Y21.775 E24.37236
G1 X39.36 Y21.887 E24.40325
G1 X39.95 Y22.078 E24.43419
G1 X40.51 Y22.342 E24.46508
G1 X41.031 Y22.677 E24.49598
G1 X41.47 Y23.042 E24.52447
G1 X41.759 Y23.317 E24.54437
G1 X197.754 Y179.313 E35.55069
G1 X198.238 Y179.811 E35.58534
G1 X198.64 Y180.282 E35.61623
G1 X198.978 Y180.801 E35.64713
G1 X199.247 Y181.359 E35.67804
G1 X199.441 Y181.947 E35.70893
G1 X199.558 Y182.555 E35.73982
G1 X199.596 Y183.173 E35.77071
G1 X199.554 Y183.791 E35.80161
G1 X199.432 Y184.398 E35.8325
G1 X199.234 Y184.985 E35.86341
G1 X198.961 Y185.541 E35.89431
G1 X198.62 Y186.058 E35.92521
G1 X198.214 Y186.526 E35.95612
G1 X197.752 Y186.938 E35.987
G1 X197.24 Y187.287 E36.01792
G1 X196.688 Y187.567 E36.0488
G1 X196.104 Y187.774 E36.07971
G1 X195.498 Y187.904 E36.11063
G1 X194.881 Y187.955 E36.14152
G1 X194.262 Y187.926 E36.17243
G1 X193.698 Y187.829 E36.20098
G1 X193.447 Y187.77 E36.21385
G1 X165.556 Y180.299 E37.65439
G1 X164.859 Y180.102 E37.69053
G1 X164.276 Y179.895 E37.72139
G1 X163.723 Y179.615 E37.75232
G1 X163.211 Y179.267 E37.7832
G1 X162.876 Y178.979 E37.80524
G1 X162.5 Y178.622 E37.83111
G1 X42.932 Y59.054 E46.26728
G1 X42.416 Y58.523 E46.30422
G1 X42.014 Y58.052 E46.33511
G1 X41.675 Y57.533 E46.36604
G1 X41.407 Y56.975 E46.39692
G1 X41.26 Y56.556 E46.41907
G1 X41.159 Y56.219 E46.43663
G1 X33.692 Y28.358 E47.87567
G1 X33.53 Y27.717 E47.90866
G1 X33.418 Y27.108 E47.93955
G1 X33.384 Y26.49 E47.97043
G1 X33.431 Y25.872 E48.00135
G1 X33.557 Y25.266 E48.03223
G1 X33.759 Y24.68 E48.06315
G1 X34.036 Y24.126 E48.09405
G1 X34.381 Y23.612 E48.12494
G0 F7500 X34.809 Y23.718
G1 F1500 X35.219 Y23.29 E48.15451
G1 X35.683 Y22.921 E48.18409
G1 X36.193 Y22.617 E48.21371
G1 X36.738 Y22.385 E48.24326
G1 X37.31 Y22.229 E48.27284
G1 X37.898 Y22.15 E48.30244
G1 X38.491 Y22.152 E48.33202
G1 X39.078 Y22.233 E48.36158
G1 X39.649 Y22.392 E48.39116
G1 X40.194 Y22.627 E48.42077
G1 X40.702 Y22.933 E48.45035
G1 X41.196 Y23.334 E48.4821
G1 X41.476 Y23.6 E48.50136
G1 X197.467 Y179.591 E59.50737
G1 X197.951 Y180.089 E59.54202
G1 X198.335 Y180.541 E59.57161
G1 X198.654 Y181.041 E59.6012
G1 X198.904 Y181.579 E59.63079
G1 X199.078 Y182.146 E59.66038
G1 X199.175 Y182.731 E59.68997
G1 X199.193 Y183.323 E59.71952
G1 X199.13 Y183.913 E59.74912
G1 X198.989 Y184.489 E59.7787
G1 X198.772 Y185.041 E59.8083
G1 X198.482 Y185.558 E59.83787
G1 X198.126 Y186.032 E59.86744
G1 X197.709 Y186.454 E59.89704
G1 X197.239 Y186.815 E59.92661
G1 X196.725 Y187.111 E59.9562
G1 X196.176 Y187.334 E59.98576
G1 X195.601 Y187.482 E60.01539
G1 X195.013 Y187.551 E60.04492
G1 X194.42 Y187.54 E60.07451
G1 X193.789 Y187.439 E60.10639
G1 X193.406 Y187.347 E60.12605
G1 X165.665 Y179.914 E61.55887
G1 X164.968 Y179.717 E61.59501
G1 X164.41 Y179.518 E61.62456
G1 X163.883 Y179.245 E61.65417
G1 X163.398 Y178.904 E61.68375
G1 X163.15 Y178.687 E61.70019
G1 X162.783 Y178.339 E61.72542
G1 X43.218 Y58.775 E70.16135
G1 X42.702 Y58.244 E70.19829
G1 X42.319 Y57.792 E70.22784
G1 X41.999 Y57.293 E70.25742
G1 X41.75 Y56.755 E70.28699
G1 X41.643 Y56.441 E70.30354
G1 X41.507 Y55.98 E70.32752
G1 X34.08 Y28.26 E71.75926
G1 X33.918 Y27.619 E71.79224
G1 X33.812 Y27.036 E71.82181
G1 X33.785 Y26.443 E71.85142
G1 X33.838 Y25.853 E71.88098
G1 X33.97 Y25.275 E71.91055
G1 X34.179 Y24.72 E71.94014
G1 X34.46 Y24.198 E71.96972
G1 X34.809 Y23.718 E71.99933
G0 F7500 X35.237 Y23.836
G1 F1500 X35.648 Y23.448 E72.02752
G1 X36.109 Y23.121 E72.05572
G1 X36.612 Y22.863 E72.08393
G1 X37.146 Y22.678 E72.11212
G1 X37.701 Y22.57 E72.14033
G1 X38.266 Y22.542 E72.16855
G1 X38.829 Y22.593 E72.19675
G1 X39.379 Y22.724 E72.22496
G1 X39.905 Y22.93 E72.25314
G1 X40.397 Y23.209 E72.28136
G1 X40.975 Y23.667 E72.31815
G1 X197.18 Y179.87 E83.33919
G1 X197.664 Y180.368 E83.37384
G1 X198.029 Y180.8 E83.40205
G1 X198.329 Y181.28 E83.43029
G1 X198.558 Y181.796 E83.45846
G1 X198.712 Y182.34 E83.48666
G1 X198.788 Y182.901 E83.51491
G1 X198.784 Y183.466 E83.5431
G1 X198.7 Y184.025 E83.5713
G1 X198.539 Y184.567 E83.59951
G1 X198.303 Y185.08 E83.62768
G1 X197.996 Y185.556 E83.65594
G1 X197.626 Y185.983 E83.68413
G1 X197.199 Y186.354 E83.71235
G1 X196.724 Y186.66 E83.74054
G1 X196.211 Y186.897 E83.76873
G1 X195.67 Y187.059 E83.7969
G1 X195.111 Y187.144 E83.82511
G1 X194.545 Y187.148 E83.85335
G1 X193.881 Y187.05 E83.88684
G1 X193.51 Y186.961 E83.90587
G1 X165.774 Y179.529 E85.33844
G1 X165.077 Y179.332 E85.37458
G1 X164.545 Y179.14 E85.40279
G1 X164.046 Y178.876 E85.43096
G1 X163.424 Y178.396 E85.47016
G1 X163.153 Y178.141 E85.48872
G1 X43.505 Y58.497 E93.93039
G1 X42.989 Y57.966 E93.96733
G1 X42.625 Y57.533 E93.99555
G1 X42.325 Y57.054 E94.02375
G1 X42.026 Y56.326 E94.06302
G1 X41.893 Y55.876 E94.08643
G1 X34.468 Y28.162 E95.51785
G1 X34.306 Y27.521 E95.55083
G1 X34.206 Y26.965 E95.57901
G1 X34.186 Y26.4 E95.60722
G1 X34.246 Y25.837 E95.63547
G1 X34.385 Y25.289 E95.66367
G1 X34.599 Y24.766 E95.69187
G1 X34.885 Y24.279 E95.72004
G1 X35.237 Y23.836 E95.74827
G0 F7500 X35.666 Y23.968
G1 F1500 X36.076 Y23.623 E95.775
G1 X36.533 Y23.342 E95.80177
G1 X37.027 Y23.132 E95.82855
G1 X37.546 Y22.998 E95.85529
G1 X38.079 Y22.943 E95.88202
G1 X38.615 Y22.967 E95.90879
G1 X39.141 Y23.071 E95.93554
G1 X39.646 Y23.251 E95.96229
G1 X40.119 Y23.505 E95.98908
G1 X40.649 Y23.917 E96.02257
G1 X40.911 Y24.165 E96.04056
G1 X196.894 Y180.149 E107.04604
G1 X197.378 Y180.647 E107.08069
G1 X197.722 Y181.058 E107.10743
G1 X198.001 Y181.516 E107.13418
G1 X198.209 Y182.01 E107.16093
G1 X198.341 Y182.53 E107.18769
G1 X198.395 Y183.064 E107.21447
G1 X198.369 Y183.599 E107.24119
G1 X198.263 Y184.125 E107.26796
G1 X198.081 Y184.63 E107.29474
G1 X197.825 Y185.101 E107.32149
G1 X197.503 Y185.53 E107.34825
G1 X197.12 Y185.905 E107.37499
G1 X196.686 Y186.22 E107.40174
G1 X196.21 Y186.467 E107.4285
G1 X195.702 Y186.64 E107.45527
G1 X195.175 Y186.736 E107.482
G1 X194.639 Y186.753 E107.50875
G1 X193.972 Y186.66 E107.54235
G1 X193.613 Y186.574 E107.56077
G1 X165.883 Y179.144 E108.99302
G1 X165.186 Y178.947 E109.02916
G1 X164.682 Y178.763 E109.05593
G1 X164.211 Y178.507 E109.08267
G1 X163.698 Y178.105 E109.11519
G1 X163.348 Y177.774 E109.13922
G1 X43.792 Y58.218 E117.57454
G1 X43.276 Y57.687 E117.61148
G1 X42.932 Y57.275 E117.63826
G1 X42.653 Y56.818 E117.66497
G1 X42.41 Y56.212 E117.69755
G1 X42.28 Y55.773 E117.72039
G1 X34.856 Y28.064 E119.15155
G1 X34.694 Y27.423 E119.18454
G1 X34.601 Y26.895 E119.21129
G1 X34.589 Y26.359 E119.23803
G1 X34.656 Y25.827 E119.26479
G1 X34.801 Y25.31 E119.29157
G1 X35.021 Y24.821 E119.31833
G1 X35.312 Y24.371 E119.34506
G1 X35.666 Y23.968 E119.37182
G0 F7500 X36.095 Y24.117
G1 F1500 X36.503 Y23.818 E119.39706
G1 X36.953 Y23.587 E119.42229
G1 X37.433 Y23.43 E119.44749
G1 X37.933 Y23.351 E119.47274
G1 X38.438 Y23.351 E119.49794
G1 X38.937 Y23.431 E119.52315
G1 X39.418 Y23.588 E119.5484
G1 X39.867 Y23.82 E119.57361
G1 X40.375 Y24.208 E119.6055
G1 X40.628 Y24.448 E119.6229
G1 X196.607 Y180.428 E130.6281
G1 X197.091 Y180.926 E130.66274
G1 X197.413 Y181.315 E130.68794
G1 X197.671 Y181.75 E130.71317
G1 X197.856 Y182.22 E130.73837
G1 X197.965 Y182.714 E130.76361
G1 X197.995 Y183.219 E130.78884
G1 X197.946 Y183.722 E130.81406
G1 X197.817 Y184.211 E130.83929
G1 X197.613 Y184.674 E130.86453
G1 X197.339 Y185.098 E130.88972
G1 X197.001 Y185.475 E130.91498
G1 X196.609 Y185.793 E130.94016
G1 X196.171 Y186.046 E130.9654
G1 X195.699 Y186.226 E130.9906
G1 X195.204 Y186.33 E131.01583
G1 X194.699 Y186.355 E131.04106
G1 X194.064 Y186.271 E131.07301
G1 X193.717 Y186.188 E131.09082
G1 X165.992 Y178.759 E132.52282
G1 X165.295 Y178.562 E132.55895
G1 X164.821 Y178.387 E132.58416
G1 X164.38 Y178.139 E132.6094
G1 X163.972 Y177.813 E132.63546
G1 X163.631 Y177.491 E132.65886
G1 X44.079 Y57.939 E141.0939
G1 X43.563 Y57.408 E141.13084
G1 X43.24 Y57.019 E141.15606
G1 X42.983 Y56.584 E141.18127
G1 X42.793 Y56.097 E141.20735
G1 X42.666 Y55.669 E141.22962
G1 X35.244 Y27.966 E142.66047
G1 X35.082 Y27.325 E142.69346
G1 X34.997 Y26.827 E142.71866
G1 X34.992 Y26.321 E142.74391
G1 X35.066 Y25.821 E142.76912
G1 X35.218 Y25.339 E142.79434
G1 X35.445 Y24.887 E142.81957
G1 X35.739 Y24.476 E142.84478
G1 X36.095 Y24.117 E142.87001
;MESH:TETRAEDRr2.stl
G0 F7500 X38.298 Y29.57
G0 X39.713 Y29.19
G0 X46.532 Y54.786
G0 X166.574 Y174.876
G0 X166.471 Y174.954
;TYPE:WALL-INNER
G1 F1500 X192.815 Y182.012 E144.23067
G1 X39.326 Y28.521 E155.06022
G1 X46.386 Y54.87 E156.42114
G1 X166.471 Y174.954 E164.89375
G0 F7500 X166.264 Y175.312
;TYPE:WALL-OUTER
G1 F1500 X194.153 Y182.784 E166.33421
G1 X38.554 Y27.183 E177.31263
G1 X46.028 Y55.077 E178.75336
G1 X166.264 Y175.312 E187.23662
G0 F7500 X166.457 Y175.363
G0 X166.659 Y174.63
;TYPE:SKIN
G1 F1500 X191.606 Y181.313 E188.52512
G1 X40.025 Y29.729 E199.22008
G1 X46.71 Y54.682 E200.5089
G1 X166.659 Y174.63 E208.97191
G0 F7500 X166.592 Y174.881
G0 X138.31 Y146.512
G0 X46.599 Y54.748
G0 X46.464 Y54.425
G0 X46.767 Y54.121
G1 F1500 X167.218 Y174.571 E217.47034
G0 F7500 X167.99 Y174.779
G1 F1500 X46.56 Y53.348 E226.03792
G0 F7500 X46.352 Y52.575
G1 F1500 X168.763 Y174.986 E234.67468
G0 F7500 X169.536 Y175.193
G1 F1500 X46.145 Y51.802 E243.38058
G0 F7500 X45.938 Y51.029
G1 F1500 X170.308 Y175.399 E252.15556
G0 F7500 X171.081 Y175.607
G1 F1500 X45.731 Y50.256 E260.99971
G0 F7500 X45.524 Y49.484
G1 F1500 X171.854 Y175.814 E269.91297
G0 F7500 X172.627 Y176.021
G1 F1500 X45.317 Y48.711 E278.89538
G0 F7500 X45.11 Y47.939
G1 F1500 X173.399 Y176.227 E287.94683
G0 F7500 X174.172 Y176.435
G1 F1500 X44.903 Y47.166 E297.06745
G0 F7500 X44.696 Y46.393
G1 F1500 X174.945 Y176.642 E306.25723
G0 F7500 X175.718 Y176.849
G1 F1500 X44.489 Y45.62 E315.51614
G0 F7500 X44.281 Y44.847
G1 F1500 X176.49 Y177.056 E324.8442
G0 F7500 X177.263 Y177.263
G1 F1500 X44.074 Y44.074 E334.2414
G0 F7500 X43.868 Y43.302
G1 F1500 X178.036 Y177.47 E343.70768
G0 F7500 X178.808 Y177.677
G1 F1500 X43.661 Y42.529 E353.24307
G0 F7500 X43.453 Y41.756
G1 F1500 X179.581 Y177.884 E362.84763
G0 F7500 X180.353 Y178.091
G1 F1500 X43.246 Y40.983 E372.52131
G0 F7500 X43.039 Y40.211
G1 F1500 X181.126 Y178.298 E382.26409
G0 F7500 X181.899 Y178.505
G1 F1500 X42.832 Y39.438 E392.07602
G0 F7500 X42.625 Y38.665
G1 F1500 X182.671 Y178.712 E401.95705
G0 F7500 X183.444 Y178.919
G1 F1500 X42.418 Y37.893 E411.9072
G0 F7500 X42.211 Y37.12
G1 F1500 X184.217 Y179.126 E421.92649
G0 F7500 X184.99 Y179.333
G1 F1500 X42.004 Y36.347 E432.01493
G0 F7500 X41.797 Y35.574
G1 F1500 X185.762 Y179.54 E442.17247
G0 F7500 X186.535 Y179.747
G1 F1500 X41.589 Y34.801 E452.39919
G0 F7500 X41.382 Y34.028
G1 F1500 X187.308 Y179.954 E462.69506
G0 F7500 X188.081 Y180.161
G1 F1500 X41.175 Y33.255 E473.06007
G0 F7500 X40.969 Y32.483
G1 F1500 X188.854 Y180.368 E483.49416
G0 F7500 X189.626 Y180.575
G1 F1500 X40.761 Y31.71 E493.99739
G0 F7500 X40.554 Y30.938
G1 F1500 X190.399 Y180.782 E504.56973
;MESH:NONMESH
G0 F300 X190.399 Y180.782 Z0.4
G0 F7500 X190.28 Y181.228
G0 X166.821 Y174.739
G0 X166.744 Y175.027
;TIME_ELAPSED:413.043470
;LAYER:1
M106 S68
;TYPE:WALL-INNER
;MESH:TETRAEDRr2.stl
G1 F1500 X192.678 Y181.975 E505.01622
G1 X39.363 Y28.658 E508.62198
G1 X46.313 Y54.597 E509.06856
G1 X166.744 Y175.027 E511.9009
G0 F8250 X166.537 Y175.385
;TYPE:WALL-OUTER
G1 F1500 X194.016 Y182.747 E512.37399
G1 X38.591 Y27.32 E516.02938
G1 X45.955 Y54.804 E516.50256
G1 X166.537 Y175.385 E519.33845
G0 F8250 X166.73 Y175.436
G0 X166.932 Y174.703
;TYPE:SKIN
G1 F1140 X191.469 Y181.277 E519.76089
G1 X40.062 Y29.866 E523.3218
G1 X46.637 Y54.409 E523.74435
G1 X166.932 Y174.703 E526.57349
G0 F8250 X166.865 Y174.954
G0 X169.021 Y175.431
G0 X191.979 Y181.571
G0 X191.247 Y180.814
G0 X190.825 Y180.265
G0 X190.499 Y180.59
G1 F1140 X190.326 Y180.763 E526.57756
G0 F8250 X189.88 Y180.643
G1 F1140 X190.216 Y180.307 E526.58546
G0 F8250 X189.933 Y180.024
G1 F1140 X189.433 Y180.524 E526.59722
G0 F8250 X188.987 Y180.404
G1 F1140 X189.65 Y179.741 E526.61281
G0 F8250 X189.368 Y179.458
G1 F1140 X188.541 Y180.285 E526.63226
G0 F8250 X188.095 Y180.165
G1 F1140 X189.085 Y179.175 E526.65554
G0 F8250 X188.802 Y178.893
G1 F1140 X187.649 Y180.046 E526.68266
G0 F8250 X187.202 Y179.926
G1 F1140 X188.519 Y178.61 E526.71362
G0 F8250 X188.236 Y178.327
G1 F1140 X186.756 Y179.807 E526.74843
G0 F8250 X186.31 Y179.687
G1 F1140 X187.953 Y178.044 E526.78707
G0 F8250 X187.671 Y177.761
G1 F1140 X185.864 Y179.568 E526.82957
G0 F8250 X185.418 Y179.448
G1 F1140 X187.388 Y177.478 E526.8759
G0 F8250 X187.105 Y177.196
G1 F1140 X184.972 Y179.329 E526.92606
G0 F8250 X184.525 Y179.209
G1 F1140 X186.822 Y176.913 E526.98007
G0 F8250 X186.539 Y176.63
G1 F1140 X184.079 Y179.09 E527.03793
G0 F8250 X183.633 Y178.97
G1 F1140 X186.256 Y176.347 E527.09962
G0 F8250 X185.974 Y176.064
G1 F1140 X183.187 Y178.851 E527.16517
G0 F8250 X182.741 Y178.731
G1 F1140 X185.691 Y175.781 E527.23454
G0 F8250 X185.408 Y175.498
G1 F1140 X182.295 Y178.611 E527.30776
G0 F8250 X181.849 Y178.492
G1 F1140 X185.125 Y175.216 E527.3848
G0 F8250 X184.842 Y174.933
G1 F1140 X181.403 Y178.372 E527.46568
G0 F8250 X180.957 Y178.253
G1 F1140 X184.559 Y174.65 E527.55041
